M140 S60
M105
M190 S60
M104 S200
M105
M109 S200
M82 ;absolute extrusion mode
G90; absolute positioning mode
M201 X500.00 Y500.00 Z100.00 E5000.00 ;Setup machine max acceleration
M203 X500.00 Y500.00 Z10.00 E50.00 ;Setup machine max feedrate
M204 P500.00 R1000.00 T500.00 ;Setup Print/Retract/Travel acceleration
M205 X8.00 Y8.00 Z0.40 E5.00 ;Setup Jerk
M220 S100 ;Reset Feedrate
M221 S100 ;Reset Flowrate

G28 ;Home

G92 E0 ;Reset Extruder
G1 Z2.0 F3000 ;Move Z Axis up
G1 X10.1 Y20 Z0.28 F5000.0 ;Move to start position
G1 X10.1 Y200.0 Z0.28 F1500.0 E15 ;Draw the first line
G1 X10.4 Y200.0 Z0.28 F5000.0 ;Move to side a little
G1 X10.4 Y20 Z0.28 F1500.0 E30 ;Draw the second line
G92 E0 ;Reset Extruder
G1 Z2.0 F3000 ;Move Z Axis up




G1 X0 Y0 Z0.2 E0.0 F0
G1 X15 Y10 Z0.2 E0.0 F2000
G1 X15 Y30 Z0.2 E1.0 F2000
G1 X16 Y30 Z0.2 E1.05 F2000
G1 X16 Y10 Z0.2 E2.05 F2000
G1 X17 Y10 Z0.2 E2.0999999999999996 F2000
G1 X17 Y30 Z0.2 E3.0999999999999996 F2000
G1 X18 Y30 Z0.2 E3.1499999999999995 F2000
G1 X18 Y10 Z0.2 E4.1499999999999995 F2000
G1 X19 Y10 Z0.2 E4.199999999999999 F2000
G1 X19 Y30 Z0.2 E5.199999999999999 F2000
G1 X20 Y30 Z0.2 E5.249999999999999 F2000
G1 X20 Y10 Z0.2 E6.249999999999999 F2000
G1 X21 Y10 Z0.2 E6.299999999999999 F2000
G1 X21 Y30 Z0.2 E7.299999999999999 F2000
G1 X22 Y30 Z0.2 E7.349999999999999 F2000
G1 X22 Y10 Z0.2 E8.349999999999998 F2000
G1 X23 Y10 Z0.2 E8.399999999999999 F2000
G1 X23 Y30 Z0.2 E9.399999999999999 F2000
G1 X24 Y30 Z0.2 E9.45 F2000
G1 X24 Y10 Z0.2 E10.45 F2000
G1 X25 Y10 Z0.2 E10.5 F2000
G1 X25 Y30 Z0.2 E11.5 F2000
G1 X26 Y30 Z0.2 E11.55 F2000
G1 X26 Y10 Z0.2 E12.55 F2000
G1 X27 Y10 Z0.2 E12.600000000000001 F2000
G1 X27 Y30 Z0.2 E13.600000000000001 F2000
G1 X28 Y30 Z0.2 E13.650000000000002 F2000
G1 X28 Y10 Z0.2 E14.650000000000002 F2000
G1 X29 Y10 Z0.2 E14.700000000000003 F2000
G1 X29 Y30 Z0.2 E15.700000000000003 F2000
G1 X30 Y30 Z0.2 E15.750000000000004 F2000
G1 X30 Y10 Z0.2 E16.750000000000004 F2000
G1 X31 Y10 Z0.2 E16.800000000000004 F2000
G1 X31 Y30 Z0.2 E17.800000000000004 F2000
G1 X32 Y30 Z0.2 E17.850000000000005 F2000
G1 X32 Y10 Z0.2 E18.850000000000005 F2000
G1 X33 Y10 Z0.2 E18.900000000000006 F2000
G1 X33 Y30 Z0.2 E19.900000000000006 F2000
G1 X34 Y30 Z0.2 E19.950000000000006 F2000
G1 X34 Y10 Z0.2 E20.950000000000006 F2000
G1 X34 Y10 Z0.25 E20.950000000000006 F2000
G1 X34 Y30 Z0.25 E21.950000000000006 F2000
G1 X33 Y30 Z0.25 E22.000000000000007 F2000
G1 X33 Y10 Z0.25 E23.000000000000007 F2000
G1 X32 Y10 Z0.25 E23.050000000000008 F2000
G1 X32 Y30 Z0.25 E24.050000000000008 F2000
G1 X31 Y30 Z0.25 E24.10000000000001 F2000
G1 X31 Y10 Z0.25 E25.10000000000001 F2000
G1 X30 Y10 Z0.25 E25.15000000000001 F2000
G1 X30 Y30 Z0.25 E26.15000000000001 F2000
G1 X29 Y30 Z0.25 E26.20000000000001 F2000
G1 X29 Y10 Z0.25 E27.20000000000001 F2000
G1 X28 Y10 Z0.25 E27.25000000000001 F2000
G1 X28 Y30 Z0.25 E28.25000000000001 F2000
G1 X27 Y30 Z0.25 E28.30000000000001 F2000
G1 X27 Y10 Z0.25 E29.30000000000001 F2000
G1 X26 Y10 Z0.25 E29.350000000000012 F2000
G1 X26 Y30 Z0.25 E30.350000000000012 F2000
G1 X25 Y30 Z0.25 E30.400000000000013 F2000
G1 X25 Y10 Z0.25 E31.400000000000013 F2000
G1 X24 Y10 Z0.25 E31.450000000000014 F2000
G1 X24 Y30 Z0.25 E32.45000000000002 F2000
G1 X23 Y30 Z0.25 E32.500000000000014 F2000
G1 X23 Y10 Z0.25 E33.500000000000014 F2000
G1 X22 Y10 Z0.25 E33.55000000000001 F2000
G1 X22 Y30 Z0.25 E34.55000000000001 F2000
G1 X21 Y30 Z0.25 E34.60000000000001 F2000
G1 X21 Y10 Z0.25 E35.60000000000001 F2000
G1 X20 Y10 Z0.25 E35.650000000000006 F2000
G1 X20 Y30 Z0.25 E36.650000000000006 F2000
G1 X19 Y30 Z0.25 E36.7 F2000
G1 X19 Y10 Z0.25 E37.7 F2000
G1 X18 Y10 Z0.25 E37.75 F2000
G1 X18 Y30 Z0.25 E38.75 F2000
G1 X17 Y30 Z0.25 E38.8 F2000
G1 X17 Y10 Z0.25 E39.8 F2000
G1 X16 Y10 Z0.25 E39.849999999999994 F2000
G1 X16 Y30 Z0.25 E40.849999999999994 F2000
G1 X16 Y30 Z0.3 E40.849999999999994 F2000
G1 X17 Y10 Z0.3 E40.849999999999994 F2000
G1 X17 Y30 Z0.3 E41.849999999999994 F2000
G1 X18 Y30 Z0.3 E41.89999999999999 F2000
G1 X18 Y10 Z0.3 E42.89999999999999 F2000
G1 X19 Y10 Z0.3 E42.94999999999999 F2000
G1 X19 Y30 Z0.3 E43.94999999999999 F2000
G1 X20 Y30 Z0.3 E43.999999999999986 F2000
G1 X20 Y10 Z0.3 E44.999999999999986 F2000
G1 X21 Y10 Z0.3 E45.04999999999998 F2000
G1 X21 Y30 Z0.3 E46.04999999999998 F2000
G1 X22 Y30 Z0.3 E46.09999999999998 F2000
G1 X22 Y10 Z0.3 E47.09999999999998 F2000
G1 X23 Y10 Z0.3 E47.14999999999998 F2000
G1 X23 Y30 Z0.3 E48.14999999999998 F2000
G1 X24 Y30 Z0.3 E48.199999999999974 F2000
G1 X24 Y10 Z0.3 E49.199999999999974 F2000
G1 X25 Y10 Z0.3 E49.24999999999997 F2000
G1 X25 Y30 Z0.3 E50.24999999999997 F2000
G1 X26 Y30 Z0.3 E50.29999999999997 F2000
G1 X26 Y10 Z0.3 E51.29999999999997 F2000
G1 X27 Y10 Z0.3 E51.349999999999966 F2000
G1 X27 Y30 Z0.3 E52.349999999999966 F2000
G1 X28 Y30 Z0.3 E52.39999999999996 F2000
G1 X28 Y10 Z0.3 E53.39999999999996 F2000
G1 X29 Y10 Z0.3 E53.44999999999996 F2000
G1 X29 Y30 Z0.3 E54.44999999999996 F2000
G1 X30 Y30 Z0.3 E54.49999999999996 F2000
G1 X30 Y10 Z0.3 E55.49999999999996 F2000
G1 X31 Y10 Z0.3 E55.549999999999955 F2000
G1 X31 Y30 Z0.3 E56.549999999999955 F2000
G1 X32 Y30 Z0.3 E56.59999999999995 F2000
G1 X32 Y10 Z0.3 E57.59999999999995 F2000
G1 X33 Y10 Z0.3 E57.64999999999995 F2000
G1 X33 Y30 Z0.3 E58.64999999999995 F2000
G1 X34 Y30 Z0.3 E58.699999999999946 F2000
G1 X34 Y10 Z0.3 E59.699999999999946 F2000
G1 X34 Y10 Z0.35 E59.699999999999946 F2000
G1 X34 Y30 Z0.35 E60.699999999999946 F2000
G1 X33 Y30 Z0.35 E60.74999999999994 F2000
G1 X33 Y10 Z0.35 E61.74999999999994 F2000
G1 X32 Y10 Z0.35 E61.79999999999994 F2000
G1 X32 Y30 Z0.35 E62.79999999999994 F2000
G1 X31 Y30 Z0.35 E62.84999999999994 F2000
G1 X31 Y10 Z0.35 E63.84999999999994 F2000
G1 X30 Y10 Z0.35 E63.899999999999935 F2000
G1 X30 Y30 Z0.35 E64.89999999999993 F2000
G1 X29 Y30 Z0.35 E64.94999999999993 F2000
G1 X29 Y10 Z0.35 E65.94999999999993 F2000
G1 X28 Y10 Z0.35 E65.99999999999993 F2000
G1 X28 Y30 Z0.35 E66.99999999999993 F2000
G1 X27 Y30 Z0.35 E67.04999999999993 F2000
G1 X27 Y10 Z0.35 E68.04999999999993 F2000
G1 X26 Y10 Z0.35 E68.09999999999992 F2000
G1 X26 Y30 Z0.35 E69.09999999999992 F2000
G1 X25 Y30 Z0.35 E69.14999999999992 F2000
G1 X25 Y10 Z0.35 E70.14999999999992 F2000
G1 X24 Y10 Z0.35 E70.19999999999992 F2000
G1 X24 Y30 Z0.35 E71.19999999999992 F2000
G1 X23 Y30 Z0.35 E71.24999999999991 F2000
G1 X23 Y10 Z0.35 E72.24999999999991 F2000
G1 X22 Y10 Z0.35 E72.29999999999991 F2000
G1 X22 Y30 Z0.35 E73.29999999999991 F2000
G1 X21 Y30 Z0.35 E73.34999999999991 F2000
G1 X21 Y10 Z0.35 E74.34999999999991 F2000
G1 X20 Y10 Z0.35 E74.3999999999999 F2000
G1 X20 Y30 Z0.35 E75.3999999999999 F2000
G1 X19 Y30 Z0.35 E75.4499999999999 F2000
G1 X19 Y10 Z0.35 E76.4499999999999 F2000
G1 X18 Y10 Z0.35 E76.4999999999999 F2000
G1 X18 Y30 Z0.35 E77.4999999999999 F2000
G1 X18 Y30 Z0.39999999999999997 E77.4999999999999 F2000
G1 X19 Y10 Z0.39999999999999997 E77.4999999999999 F2000
G1 X19 Y30 Z0.39999999999999997 E78.4999999999999 F2000
G1 X20 Y30 Z0.39999999999999997 E78.5499999999999 F2000
G1 X20 Y10 Z0.39999999999999997 E79.5499999999999 F2000
G1 X21 Y10 Z0.39999999999999997 E79.5999999999999 F2000
G1 X21 Y30 Z0.39999999999999997 E80.5999999999999 F2000
G1 X22 Y30 Z0.39999999999999997 E80.64999999999989 F2000
G1 X22 Y10 Z0.39999999999999997 E81.64999999999989 F2000
G1 X23 Y10 Z0.39999999999999997 E81.69999999999989 F2000
G1 X23 Y30 Z0.39999999999999997 E82.69999999999989 F2000
G1 X24 Y30 Z0.39999999999999997 E82.74999999999989 F2000
G1 X24 Y10 Z0.39999999999999997 E83.74999999999989 F2000
G1 X25 Y10 Z0.39999999999999997 E83.79999999999988 F2000
G1 X25 Y30 Z0.39999999999999997 E84.79999999999988 F2000
G1 X26 Y30 Z0.39999999999999997 E84.84999999999988 F2000
G1 X26 Y10 Z0.39999999999999997 E85.84999999999988 F2000
G1 X27 Y10 Z0.39999999999999997 E85.89999999999988 F2000
G1 X27 Y30 Z0.39999999999999997 E86.89999999999988 F2000
G1 X28 Y30 Z0.39999999999999997 E86.94999999999987 F2000
G1 X28 Y10 Z0.39999999999999997 E87.94999999999987 F2000
G1 X29 Y10 Z0.39999999999999997 E87.99999999999987 F2000
G1 X29 Y30 Z0.39999999999999997 E88.99999999999987 F2000
G1 X30 Y30 Z0.39999999999999997 E89.04999999999987 F2000
G1 X30 Y10 Z0.39999999999999997 E90.04999999999987 F2000
G1 X31 Y10 Z0.39999999999999997 E90.09999999999987 F2000
G1 X31 Y30 Z0.39999999999999997 E91.09999999999987 F2000
G1 X32 Y30 Z0.39999999999999997 E91.14999999999986 F2000
G1 X32 Y10 Z0.39999999999999997 E92.14999999999986 F2000
G1 X33 Y10 Z0.39999999999999997 E92.19999999999986 F2000
G1 X33 Y30 Z0.39999999999999997 E93.19999999999986 F2000
G1 X34 Y30 Z0.39999999999999997 E93.24999999999986 F2000
G1 X34 Y10 Z0.39999999999999997 E94.24999999999986 F2000
G1 X34 Y10 Z0.44999999999999996 E94.24999999999986 F2000
G1 X34 Y30 Z0.44999999999999996 E95.24999999999986 F2000
G1 X33 Y30 Z0.44999999999999996 E95.29999999999986 F2000
G1 X33 Y10 Z0.44999999999999996 E96.29999999999986 F2000
G1 X32 Y10 Z0.44999999999999996 E96.34999999999985 F2000
G1 X32 Y30 Z0.44999999999999996 E97.34999999999985 F2000
G1 X31 Y30 Z0.44999999999999996 E97.39999999999985 F2000
G1 X31 Y10 Z0.44999999999999996 E98.39999999999985 F2000
G1 X30 Y10 Z0.44999999999999996 E98.44999999999985 F2000
G1 X30 Y30 Z0.44999999999999996 E99.44999999999985 F2000
G1 X29 Y30 Z0.44999999999999996 E99.49999999999984 F2000
G1 X29 Y10 Z0.44999999999999996 E100.49999999999984 F2000
G1 X28 Y10 Z0.44999999999999996 E100.54999999999984 F2000
G1 X28 Y30 Z0.44999999999999996 E101.54999999999984 F2000
G1 X27 Y30 Z0.44999999999999996 E101.59999999999984 F2000
G1 X27 Y10 Z0.44999999999999996 E102.59999999999984 F2000
G1 X26 Y10 Z0.44999999999999996 E102.64999999999984 F2000
G1 X26 Y30 Z0.44999999999999996 E103.64999999999984 F2000
G1 X25 Y30 Z0.44999999999999996 E103.69999999999983 F2000
G1 X25 Y10 Z0.44999999999999996 E104.69999999999983 F2000
G1 X24 Y10 Z0.44999999999999996 E104.74999999999983 F2000
G1 X24 Y30 Z0.44999999999999996 E105.74999999999983 F2000
G1 X23 Y30 Z0.44999999999999996 E105.79999999999983 F2000
G1 X23 Y10 Z0.44999999999999996 E106.79999999999983 F2000
G1 X22 Y10 Z0.44999999999999996 E106.84999999999982 F2000
G1 X22 Y30 Z0.44999999999999996 E107.84999999999982 F2000
G1 X21 Y30 Z0.44999999999999996 E107.89999999999982 F2000
G1 X21 Y10 Z0.44999999999999996 E108.89999999999982 F2000
G1 X20 Y10 Z0.44999999999999996 E108.94999999999982 F2000
G1 X20 Y30 Z0.44999999999999996 E109.94999999999982 F2000
G1 X20 Y30 Z0.49999999999999994 E109.94999999999982 F2000
G1 X21 Y10 Z0.49999999999999994 E109.94999999999982 F2000
G1 X21 Y30 Z0.49999999999999994 E110.94999999999982 F2000
G1 X22 Y30 Z0.49999999999999994 E110.99999999999982 F2000
G1 X22 Y10 Z0.49999999999999994 E111.99999999999982 F2000
G1 X23 Y10 Z0.49999999999999994 E112.04999999999981 F2000
G1 X23 Y30 Z0.49999999999999994 E113.04999999999981 F2000
G1 X24 Y30 Z0.49999999999999994 E113.09999999999981 F2000
G1 X24 Y10 Z0.49999999999999994 E114.09999999999981 F2000
G1 X25 Y10 Z0.49999999999999994 E114.1499999999998 F2000
G1 X25 Y30 Z0.49999999999999994 E115.1499999999998 F2000
G1 X26 Y30 Z0.49999999999999994 E115.1999999999998 F2000
G1 X26 Y10 Z0.49999999999999994 E116.1999999999998 F2000
G1 X27 Y10 Z0.49999999999999994 E116.2499999999998 F2000
G1 X27 Y30 Z0.49999999999999994 E117.2499999999998 F2000
G1 X28 Y30 Z0.49999999999999994 E117.2999999999998 F2000
G1 X28 Y10 Z0.49999999999999994 E118.2999999999998 F2000
G1 X29 Y10 Z0.49999999999999994 E118.3499999999998 F2000
G1 X29 Y30 Z0.49999999999999994 E119.3499999999998 F2000
G1 X30 Y30 Z0.49999999999999994 E119.39999999999979 F2000
G1 X30 Y10 Z0.49999999999999994 E120.39999999999979 F2000
G1 X31 Y10 Z0.49999999999999994 E120.44999999999979 F2000
G1 X31 Y30 Z0.49999999999999994 E121.44999999999979 F2000
G1 X32 Y30 Z0.49999999999999994 E121.49999999999979 F2000
G1 X32 Y10 Z0.49999999999999994 E122.49999999999979 F2000
G1 X33 Y10 Z0.49999999999999994 E122.54999999999978 F2000
G1 X33 Y30 Z0.49999999999999994 E123.54999999999978 F2000
G1 X34 Y30 Z0.49999999999999994 E123.59999999999978 F2000
G1 X34 Y10 Z0.49999999999999994 E124.59999999999978 F2000
G1 X34 Y10 Z0.5499999999999999 E124.59999999999978 F2000
G1 X34 Y30 Z0.5499999999999999 E125.59999999999978 F2000
G1 X33 Y30 Z0.5499999999999999 E125.64999999999978 F2000
G1 X33 Y10 Z0.5499999999999999 E126.64999999999978 F2000
G1 X32 Y10 Z0.5499999999999999 E126.69999999999978 F2000
G1 X32 Y30 Z0.5499999999999999 E127.69999999999978 F2000
G1 X31 Y30 Z0.5499999999999999 E127.74999999999977 F2000
G1 X31 Y10 Z0.5499999999999999 E128.74999999999977 F2000
G1 X30 Y10 Z0.5499999999999999 E128.79999999999978 F2000
G1 X30 Y30 Z0.5499999999999999 E129.79999999999978 F2000
G1 X29 Y30 Z0.5499999999999999 E129.8499999999998 F2000
G1 X29 Y10 Z0.5499999999999999 E130.8499999999998 F2000
G1 X28 Y10 Z0.5499999999999999 E130.8999999999998 F2000
G1 X28 Y30 Z0.5499999999999999 E131.8999999999998 F2000
G1 X27 Y30 Z0.5499999999999999 E131.94999999999982 F2000
G1 X27 Y10 Z0.5499999999999999 E132.94999999999982 F2000
G1 X26 Y10 Z0.5499999999999999 E132.99999999999983 F2000
G1 X26 Y30 Z0.5499999999999999 E133.99999999999983 F2000
G1 X25 Y30 Z0.5499999999999999 E134.04999999999984 F2000
G1 X25 Y10 Z0.5499999999999999 E135.04999999999984 F2000
G1 X24 Y10 Z0.5499999999999999 E135.09999999999985 F2000
G1 X24 Y30 Z0.5499999999999999 E136.09999999999985 F2000
G1 X23 Y30 Z0.5499999999999999 E136.14999999999986 F2000
G1 X23 Y10 Z0.5499999999999999 E137.14999999999986 F2000
G1 X22 Y10 Z0.5499999999999999 E137.19999999999987 F2000
G1 X22 Y30 Z0.5499999999999999 E138.19999999999987 F2000
G1 X22 Y30 Z0.6 E138.19999999999987 F2000
G1 X23 Y10 Z0.6 E138.19999999999987 F2000
G1 X23 Y30 Z0.6 E139.19999999999987 F2000
G1 X24 Y30 Z0.6 E139.2499999999999 F2000
G1 X24 Y10 Z0.6 E140.2499999999999 F2000
G1 X25 Y10 Z0.6 E140.2999999999999 F2000
G1 X25 Y30 Z0.6 E141.2999999999999 F2000
G1 X26 Y30 Z0.6 E141.3499999999999 F2000
G1 X26 Y10 Z0.6 E142.3499999999999 F2000
G1 X27 Y10 Z0.6 E142.39999999999992 F2000
G1 X27 Y30 Z0.6 E143.39999999999992 F2000
G1 X28 Y30 Z0.6 E143.44999999999993 F2000
G1 X28 Y10 Z0.6 E144.44999999999993 F2000
G1 X29 Y10 Z0.6 E144.49999999999994 F2000
G1 X29 Y30 Z0.6 E145.49999999999994 F2000
G1 X30 Y30 Z0.6 E145.54999999999995 F2000
G1 X30 Y10 Z0.6 E146.54999999999995 F2000
G1 X31 Y10 Z0.6 E146.59999999999997 F2000
G1 X31 Y30 Z0.6 E147.59999999999997 F2000
G1 X32 Y30 Z0.6 E147.64999999999998 F2000
G1 X32 Y10 Z0.6 E148.64999999999998 F2000
G1 X33 Y10 Z0.6 E148.7 F2000
G1 X33 Y30 Z0.6 E149.7 F2000
G1 X34 Y30 Z0.6 E149.75 F2000
G1 X34 Y10 Z0.6 E150.75 F2000
G1 X34 Y10 Z0.65 E150.75 F2000
G1 X34 Y30 Z0.65 E151.75 F2000
G1 X33 Y30 Z0.65 E151.8 F2000
G1 X33 Y10 Z0.65 E152.8 F2000
G1 X32 Y10 Z0.65 E152.85000000000002 F2000
G1 X32 Y30 Z0.65 E153.85000000000002 F2000
G1 X31 Y30 Z0.65 E153.90000000000003 F2000
G1 X31 Y10 Z0.65 E154.90000000000003 F2000
G1 X30 Y10 Z0.65 E154.95000000000005 F2000
G1 X30 Y30 Z0.65 E155.95000000000005 F2000
G1 X29 Y30 Z0.65 E156.00000000000006 F2000
G1 X29 Y10 Z0.65 E157.00000000000006 F2000
G1 X28 Y10 Z0.65 E157.05000000000007 F2000
G1 X28 Y30 Z0.65 E158.05000000000007 F2000
G1 X27 Y30 Z0.65 E158.10000000000008 F2000
G1 X27 Y10 Z0.65 E159.10000000000008 F2000
G1 X26 Y10 Z0.65 E159.1500000000001 F2000
G1 X26 Y30 Z0.65 E160.1500000000001 F2000
G1 X25 Y30 Z0.65 E160.2000000000001 F2000
G1 X25 Y10 Z0.65 E161.2000000000001 F2000
G1 X24 Y10 Z0.65 E161.2500000000001 F2000
G1 X24 Y30 Z0.65 E162.2500000000001 F2000
G1 X24 Y30 Z0.7000000000000001 E162.2500000000001 F2000
G1 X25 Y10 Z0.7000000000000001 E162.2500000000001 F2000
G1 X25 Y30 Z0.7000000000000001 E163.2500000000001 F2000
G1 X26 Y30 Z0.7000000000000001 E163.30000000000013 F2000
G1 X26 Y10 Z0.7000000000000001 E164.30000000000013 F2000
G1 X27 Y10 Z0.7000000000000001 E164.35000000000014 F2000
G1 X27 Y30 Z0.7000000000000001 E165.35000000000014 F2000
G1 X28 Y30 Z0.7000000000000001 E165.40000000000015 F2000
G1 X28 Y10 Z0.7000000000000001 E166.40000000000015 F2000
G1 X29 Y10 Z0.7000000000000001 E166.45000000000016 F2000
G1 X29 Y30 Z0.7000000000000001 E167.45000000000016 F2000
G1 X30 Y30 Z0.7000000000000001 E167.50000000000017 F2000
G1 X30 Y10 Z0.7000000000000001 E168.50000000000017 F2000
G1 X31 Y10 Z0.7000000000000001 E168.55000000000018 F2000
G1 X31 Y30 Z0.7000000000000001 E169.55000000000018 F2000
G1 X32 Y30 Z0.7000000000000001 E169.6000000000002 F2000
G1 X32 Y10 Z0.7000000000000001 E170.6000000000002 F2000
G1 X33 Y10 Z0.7000000000000001 E170.6500000000002 F2000
G1 X33 Y30 Z0.7000000000000001 E171.6500000000002 F2000
G1 X34 Y30 Z0.7000000000000001 E171.70000000000022 F2000
G1 X34 Y10 Z0.7000000000000001 E172.70000000000022 F2000
G1 X34 Y10 Z0.7500000000000001 E172.70000000000022 F2000
G1 X34 Y30 Z0.7500000000000001 E173.70000000000022 F2000
G1 X33 Y30 Z0.7500000000000001 E173.75000000000023 F2000
G1 X33 Y10 Z0.7500000000000001 E174.75000000000023 F2000
G1 X32 Y10 Z0.7500000000000001 E174.80000000000024 F2000
G1 X32 Y30 Z0.7500000000000001 E175.80000000000024 F2000
G1 X31 Y30 Z0.7500000000000001 E175.85000000000025 F2000
G1 X31 Y10 Z0.7500000000000001 E176.85000000000025 F2000
G1 X30 Y10 Z0.7500000000000001 E176.90000000000026 F2000
G1 X30 Y30 Z0.7500000000000001 E177.90000000000026 F2000
G1 X29 Y30 Z0.7500000000000001 E177.95000000000027 F2000
G1 X29 Y10 Z0.7500000000000001 E178.95000000000027 F2000
G1 X28 Y10 Z0.7500000000000001 E179.00000000000028 F2000
G1 X28 Y30 Z0.7500000000000001 E180.00000000000028 F2000
G1 X27 Y30 Z0.7500000000000001 E180.0500000000003 F2000
G1 X27 Y10 Z0.7500000000000001 E181.0500000000003 F2000
G1 X26 Y10 Z0.7500000000000001 E181.1000000000003 F2000
G1 X26 Y30 Z0.7500000000000001 E182.1000000000003 F2000
G1 X26 Y30 Z0.8000000000000002 E182.1000000000003 F2000
G1 X27 Y10 Z0.8000000000000002 E182.1000000000003 F2000
G1 X27 Y30 Z0.8000000000000002 E183.1000000000003 F2000
G1 X28 Y30 Z0.8000000000000002 E183.15000000000032 F2000
G1 X28 Y10 Z0.8000000000000002 E184.15000000000032 F2000
G1 X29 Y10 Z0.8000000000000002 E184.20000000000033 F2000
G1 X29 Y30 Z0.8000000000000002 E185.20000000000033 F2000
G1 X30 Y30 Z0.8000000000000002 E185.25000000000034 F2000
G1 X30 Y10 Z0.8000000000000002 E186.25000000000034 F2000
G1 X31 Y10 Z0.8000000000000002 E186.30000000000035 F2000
G1 X31 Y30 Z0.8000000000000002 E187.30000000000035 F2000
G1 X32 Y30 Z0.8000000000000002 E187.35000000000036 F2000
G1 X32 Y10 Z0.8000000000000002 E188.35000000000036 F2000
G1 X33 Y10 Z0.8000000000000002 E188.40000000000038 F2000
G1 X33 Y30 Z0.8000000000000002 E189.40000000000038 F2000
G1 X34 Y30 Z0.8000000000000002 E189.4500000000004 F2000
G1 X34 Y10 Z0.8000000000000002 E190.4500000000004 F2000
G1 X34 Y10 Z0.8500000000000002 E190.4500000000004 F2000
G1 X34 Y30 Z0.8500000000000002 E191.4500000000004 F2000
G1 X33 Y30 Z0.8500000000000002 E191.5000000000004 F2000
G1 X33 Y10 Z0.8500000000000002 E192.5000000000004 F2000
G1 X32 Y10 Z0.8500000000000002 E192.5500000000004 F2000
G1 X32 Y30 Z0.8500000000000002 E193.5500000000004 F2000
G1 X31 Y30 Z0.8500000000000002 E193.60000000000042 F2000
G1 X31 Y10 Z0.8500000000000002 E194.60000000000042 F2000
G1 X30 Y10 Z0.8500000000000002 E194.65000000000043 F2000
G1 X30 Y30 Z0.8500000000000002 E195.65000000000043 F2000
G1 X29 Y30 Z0.8500000000000002 E195.70000000000044 F2000
G1 X29 Y10 Z0.8500000000000002 E196.70000000000044 F2000
G1 X28 Y10 Z0.8500000000000002 E196.75000000000045 F2000
G1 X28 Y30 Z0.8500000000000002 E197.75000000000045 F2000
G1 X28 Y30 Z0.9000000000000002 E197.75000000000045 F2000
G1 X29 Y10 Z0.9000000000000002 E197.75000000000045 F2000
G1 X29 Y30 Z0.9000000000000002 E198.75000000000045 F2000
G1 X30 Y30 Z0.9000000000000002 E198.80000000000047 F2000
G1 X30 Y10 Z0.9000000000000002 E199.80000000000047 F2000
G1 X31 Y10 Z0.9000000000000002 E199.85000000000048 F2000
G1 X31 Y30 Z0.9000000000000002 E200.85000000000048 F2000
G1 X32 Y30 Z0.9000000000000002 E200.9000000000005 F2000
G1 X32 Y10 Z0.9000000000000002 E201.9000000000005 F2000
G1 X33 Y10 Z0.9000000000000002 E201.9500000000005 F2000
G1 X33 Y30 Z0.9000000000000002 E202.9500000000005 F2000
G1 X34 Y30 Z0.9000000000000002 E203.0000000000005 F2000
G1 X34 Y10 Z0.9000000000000002 E204.0000000000005 F2000
G1 X34 Y10 Z0.9500000000000003 E204.0000000000005 F2000
G1 X34 Y30 Z0.9500000000000003 E205.0000000000005 F2000
G1 X33 Y30 Z0.9500000000000003 E205.05000000000052 F2000
G1 X33 Y10 Z0.9500000000000003 E206.05000000000052 F2000
G1 X32 Y10 Z0.9500000000000003 E206.10000000000053 F2000
G1 X32 Y30 Z0.9500000000000003 E207.10000000000053 F2000
G1 X31 Y30 Z0.9500000000000003 E207.15000000000055 F2000
G1 X31 Y10 Z0.9500000000000003 E208.15000000000055 F2000
G1 X30 Y10 Z0.9500000000000003 E208.20000000000056 F2000
G1 X30 Y30 Z0.9500000000000003 E209.20000000000056 F2000
G1 X30 Y30 Z1.0000000000000002 E209.20000000000056 F2000
G1 X31 Y10 Z1.0000000000000002 E209.20000000000056 F2000
G1 X31 Y30 Z1.0000000000000002 E210.20000000000056 F2000
G1 X32 Y30 Z1.0000000000000002 E210.25000000000057 F2000
G1 X32 Y10 Z1.0000000000000002 E211.25000000000057 F2000
G1 X33 Y10 Z1.0000000000000002 E211.30000000000058 F2000
G1 X33 Y30 Z1.0000000000000002 E212.30000000000058 F2000
G1 X34 Y30 Z1.0000000000000002 E212.3500000000006 F2000
G1 X34 Y10 Z1.0000000000000002 E213.3500000000006 F2000
G1 X34 Y10 Z1.0500000000000003 E213.3500000000006 F2000
G1 X34 Y30 Z1.0500000000000003 E214.3500000000006 F2000
G1 X33 Y30 Z1.0500000000000003 E214.4000000000006 F2000
G1 X33 Y10 Z1.0500000000000003 E215.4000000000006 F2000
G1 X32 Y10 Z1.0500000000000003 E215.4500000000006 F2000
G1 X32 Y30 Z1.0500000000000003 E216.4500000000006 F2000
G1 X32 Y30 Z1.1000000000000003 E216.4500000000006 F2000
G1 X33 Y10 Z1.1000000000000003 E216.4500000000006 F2000
G1 X33 Y30 Z1.1000000000000003 E217.4500000000006 F2000
G1 X34 Y30 Z1.1000000000000003 E217.50000000000063 F2000
G1 X34 Y10 Z1.1000000000000003 E218.50000000000063 F2000
G1 X34 Y10 Z1.1500000000000004 E218.50000000000063 F2000
G1 X34 Y30 Z1.1500000000000004 E219.50000000000063 F2000
G1 X34 Y30 Z1.2000000000000004 E219.50000000000063 F2000
G1 X64 Y10 Z0.19999999999999996 E219.50000000000063 F2000
G1 X64 Y30 Z0.19999999999999996 E220.50000000000063 F2000
G1 X65 Y30 Z0.19999999999999996 E220.55000000000064 F2000
G1 X65 Y10 Z0.19999999999999996 E221.55000000000064 F2000
G1 X66 Y10 Z0.19999999999999996 E221.60000000000065 F2000
G1 X66 Y30 Z0.19999999999999996 E222.60000000000065 F2000
G1 X67 Y30 Z0.19999999999999996 E222.65000000000066 F2000
G1 X67 Y10 Z0.19999999999999996 E223.65000000000066 F2000
G1 X68 Y10 Z0.19999999999999996 E223.70000000000067 F2000
G1 X68 Y30 Z0.19999999999999996 E224.70000000000067 F2000
G1 X69 Y30 Z0.19999999999999996 E224.75000000000068 F2000
G1 X69 Y10 Z0.19999999999999996 E225.75000000000068 F2000
G1 X70 Y10 Z0.19999999999999996 E225.8000000000007 F2000
G1 X70 Y30 Z0.19999999999999996 E226.8000000000007 F2000
G1 X71 Y30 Z0.19999999999999996 E226.8500000000007 F2000
G1 X71 Y10 Z0.19999999999999996 E227.8500000000007 F2000
G1 X72 Y10 Z0.19999999999999996 E227.90000000000072 F2000
G1 X72 Y30 Z0.19999999999999996 E228.90000000000072 F2000
G1 X73 Y30 Z0.19999999999999996 E228.95000000000073 F2000
G1 X73 Y10 Z0.19999999999999996 E229.95000000000073 F2000
G1 X74 Y10 Z0.19999999999999996 E230.00000000000074 F2000
G1 X74 Y30 Z0.19999999999999996 E231.00000000000074 F2000
G1 X75 Y30 Z0.19999999999999996 E231.05000000000075 F2000
G1 X75 Y10 Z0.19999999999999996 E232.05000000000075 F2000
G1 X76 Y10 Z0.19999999999999996 E232.10000000000076 F2000
G1 X76 Y30 Z0.19999999999999996 E233.10000000000076 F2000
G1 X77 Y30 Z0.19999999999999996 E233.15000000000077 F2000
G1 X77 Y10 Z0.19999999999999996 E234.15000000000077 F2000
G1 X78 Y10 Z0.19999999999999996 E234.20000000000078 F2000
G1 X78 Y30 Z0.19999999999999996 E235.20000000000078 F2000
G1 X79 Y30 Z0.19999999999999996 E235.2500000000008 F2000
G1 X79 Y10 Z0.19999999999999996 E236.2500000000008 F2000
G1 X80 Y10 Z0.19999999999999996 E236.3000000000008 F2000
G1 X80 Y30 Z0.19999999999999996 E237.3000000000008 F2000
G1 X81 Y30 Z0.19999999999999996 E237.35000000000082 F2000
G1 X81 Y10 Z0.19999999999999996 E238.35000000000082 F2000
G1 X82 Y10 Z0.19999999999999996 E238.40000000000083 F2000
G1 X82 Y30 Z0.19999999999999996 E239.40000000000083 F2000
G1 X83 Y30 Z0.19999999999999996 E239.45000000000084 F2000
G1 X83 Y10 Z0.19999999999999996 E240.45000000000084 F2000
G1 X83 Y10 Z0.24999999999999994 E240.45000000000084 F2000
G1 X83 Y30 Z0.24999999999999994 E241.45000000000084 F2000
G1 X82 Y30 Z0.24999999999999994 E241.50000000000085 F2000
G1 X82 Y10 Z0.24999999999999994 E242.50000000000085 F2000
G1 X81 Y10 Z0.24999999999999994 E242.55000000000086 F2000
G1 X81 Y30 Z0.24999999999999994 E243.55000000000086 F2000
G1 X80 Y30 Z0.24999999999999994 E243.60000000000088 F2000
G1 X80 Y10 Z0.24999999999999994 E244.60000000000088 F2000
G1 X79 Y10 Z0.24999999999999994 E244.6500000000009 F2000
G1 X79 Y30 Z0.24999999999999994 E245.6500000000009 F2000
G1 X78 Y30 Z0.24999999999999994 E245.7000000000009 F2000
G1 X78 Y10 Z0.24999999999999994 E246.7000000000009 F2000
G1 X77 Y10 Z0.24999999999999994 E246.7500000000009 F2000
G1 X77 Y30 Z0.24999999999999994 E247.7500000000009 F2000
G1 X76 Y30 Z0.24999999999999994 E247.80000000000092 F2000
G1 X76 Y10 Z0.24999999999999994 E248.80000000000092 F2000
G1 X75 Y10 Z0.24999999999999994 E248.85000000000093 F2000
G1 X75 Y30 Z0.24999999999999994 E249.85000000000093 F2000
G1 X74 Y30 Z0.24999999999999994 E249.90000000000094 F2000
G1 X74 Y10 Z0.24999999999999994 E250.90000000000094 F2000
G1 X73 Y10 Z0.24999999999999994 E250.95000000000095 F2000
G1 X73 Y30 Z0.24999999999999994 E251.95000000000095 F2000
G1 X72 Y30 Z0.24999999999999994 E252.00000000000097 F2000
G1 X72 Y10 Z0.24999999999999994 E253.00000000000097 F2000
G1 X71 Y10 Z0.24999999999999994 E253.05000000000098 F2000
G1 X71 Y30 Z0.24999999999999994 E254.05000000000098 F2000
G1 X70 Y30 Z0.24999999999999994 E254.100000000001 F2000
G1 X70 Y10 Z0.24999999999999994 E255.100000000001 F2000
G1 X69 Y10 Z0.24999999999999994 E255.150000000001 F2000
G1 X69 Y30 Z0.24999999999999994 E256.150000000001 F2000
G1 X68 Y30 Z0.24999999999999994 E256.200000000001 F2000
G1 X68 Y10 Z0.24999999999999994 E257.200000000001 F2000
G1 X67 Y10 Z0.24999999999999994 E257.250000000001 F2000
G1 X67 Y30 Z0.24999999999999994 E258.250000000001 F2000
G1 X66 Y30 Z0.24999999999999994 E258.30000000000103 F2000
G1 X66 Y10 Z0.24999999999999994 E259.30000000000103 F2000
G1 X65 Y10 Z0.24999999999999994 E259.35000000000105 F2000
G1 X65 Y30 Z0.24999999999999994 E260.35000000000105 F2000
G1 X65 Y30 Z0.29999999999999993 E260.35000000000105 F2000
G1 X66 Y10 Z0.29999999999999993 E260.35000000000105 F2000
G1 X66 Y30 Z0.29999999999999993 E261.35000000000105 F2000
G1 X67 Y30 Z0.29999999999999993 E261.40000000000106 F2000
G1 X67 Y10 Z0.29999999999999993 E262.40000000000106 F2000
G1 X68 Y10 Z0.29999999999999993 E262.45000000000107 F2000
G1 X68 Y30 Z0.29999999999999993 E263.45000000000107 F2000
G1 X69 Y30 Z0.29999999999999993 E263.5000000000011 F2000
G1 X69 Y10 Z0.29999999999999993 E264.5000000000011 F2000
G1 X70 Y10 Z0.29999999999999993 E264.5500000000011 F2000
G1 X70 Y30 Z0.29999999999999993 E265.5500000000011 F2000
G1 X71 Y30 Z0.29999999999999993 E265.6000000000011 F2000
G1 X71 Y10 Z0.29999999999999993 E266.6000000000011 F2000
G1 X72 Y10 Z0.29999999999999993 E266.6500000000011 F2000
G1 X72 Y30 Z0.29999999999999993 E267.6500000000011 F2000
G1 X73 Y30 Z0.29999999999999993 E267.7000000000011 F2000
G1 X73 Y10 Z0.29999999999999993 E268.7000000000011 F2000
G1 X74 Y10 Z0.29999999999999993 E268.75000000000114 F2000
G1 X74 Y30 Z0.29999999999999993 E269.75000000000114 F2000
G1 X75 Y30 Z0.29999999999999993 E269.80000000000115 F2000
G1 X75 Y10 Z0.29999999999999993 E270.80000000000115 F2000
G1 X76 Y10 Z0.29999999999999993 E270.85000000000116 F2000
G1 X76 Y30 Z0.29999999999999993 E271.85000000000116 F2000
G1 X77 Y30 Z0.29999999999999993 E271.90000000000117 F2000
G1 X77 Y10 Z0.29999999999999993 E272.90000000000117 F2000
G1 X78 Y10 Z0.29999999999999993 E272.9500000000012 F2000
G1 X78 Y30 Z0.29999999999999993 E273.9500000000012 F2000
G1 X79 Y30 Z0.29999999999999993 E274.0000000000012 F2000
G1 X79 Y10 Z0.29999999999999993 E275.0000000000012 F2000
G1 X80 Y10 Z0.29999999999999993 E275.0500000000012 F2000
G1 X80 Y30 Z0.29999999999999993 E276.0500000000012 F2000
G1 X81 Y30 Z0.29999999999999993 E276.1000000000012 F2000
G1 X81 Y10 Z0.29999999999999993 E277.1000000000012 F2000
G1 X82 Y10 Z0.29999999999999993 E277.1500000000012 F2000
G1 X82 Y30 Z0.29999999999999993 E278.1500000000012 F2000
G1 X83 Y30 Z0.29999999999999993 E278.20000000000124 F2000
G1 X83 Y10 Z0.29999999999999993 E279.20000000000124 F2000
G1 X83 Y10 Z0.3499999999999999 E279.20000000000124 F2000
G1 X83 Y30 Z0.3499999999999999 E280.20000000000124 F2000
G1 X82 Y30 Z0.3499999999999999 E280.25000000000125 F2000
G1 X82 Y10 Z0.3499999999999999 E281.25000000000125 F2000
G1 X81 Y10 Z0.3499999999999999 E281.30000000000126 F2000
G1 X81 Y30 Z0.3499999999999999 E282.30000000000126 F2000
G1 X80 Y30 Z0.3499999999999999 E282.3500000000013 F2000
G1 X80 Y10 Z0.3499999999999999 E283.3500000000013 F2000
G1 X79 Y10 Z0.3499999999999999 E283.4000000000013 F2000
G1 X79 Y30 Z0.3499999999999999 E284.4000000000013 F2000
G1 X78 Y30 Z0.3499999999999999 E284.4500000000013 F2000
G1 X78 Y10 Z0.3499999999999999 E285.4500000000013 F2000
G1 X77 Y10 Z0.3499999999999999 E285.5000000000013 F2000
G1 X77 Y30 Z0.3499999999999999 E286.5000000000013 F2000
G1 X76 Y30 Z0.3499999999999999 E286.5500000000013 F2000
G1 X76 Y10 Z0.3499999999999999 E287.5500000000013 F2000
G1 X75 Y10 Z0.3499999999999999 E287.60000000000133 F2000
G1 X75 Y30 Z0.3499999999999999 E288.60000000000133 F2000
G1 X74 Y30 Z0.3499999999999999 E288.65000000000134 F2000
G1 X74 Y10 Z0.3499999999999999 E289.65000000000134 F2000
G1 X73 Y10 Z0.3499999999999999 E289.70000000000135 F2000
G1 X73 Y30 Z0.3499999999999999 E290.70000000000135 F2000
G1 X72 Y30 Z0.3499999999999999 E290.75000000000136 F2000
G1 X72 Y10 Z0.3499999999999999 E291.75000000000136 F2000
G1 X71 Y10 Z0.3499999999999999 E291.8000000000014 F2000
G1 X71 Y30 Z0.3499999999999999 E292.8000000000014 F2000
G1 X70 Y30 Z0.3499999999999999 E292.8500000000014 F2000
G1 X70 Y10 Z0.3499999999999999 E293.8500000000014 F2000
G1 X69 Y10 Z0.3499999999999999 E293.9000000000014 F2000
G1 X69 Y30 Z0.3499999999999999 E294.9000000000014 F2000
G1 X68 Y30 Z0.3499999999999999 E294.9500000000014 F2000
G1 X68 Y10 Z0.3499999999999999 E295.9500000000014 F2000
G1 X67 Y10 Z0.3499999999999999 E296.0000000000014 F2000
G1 X67 Y30 Z0.3499999999999999 E297.0000000000014 F2000
G1 X67 Y30 Z0.3999999999999999 E297.0000000000014 F2000
G1 X68 Y10 Z0.3999999999999999 E297.0000000000014 F2000
G1 X68 Y30 Z0.3999999999999999 E298.0000000000014 F2000
G1 X69 Y30 Z0.3999999999999999 E298.05000000000143 F2000
G1 X69 Y10 Z0.3999999999999999 E299.05000000000143 F2000
G1 X70 Y10 Z0.3999999999999999 E299.10000000000144 F2000
G1 X70 Y30 Z0.3999999999999999 E300.10000000000144 F2000
G1 X71 Y30 Z0.3999999999999999 E300.15000000000146 F2000
G1 X71 Y10 Z0.3999999999999999 E301.15000000000146 F2000
G1 X72 Y10 Z0.3999999999999999 E301.20000000000147 F2000
G1 X72 Y30 Z0.3999999999999999 E302.20000000000147 F2000
G1 X73 Y30 Z0.3999999999999999 E302.2500000000015 F2000
G1 X73 Y10 Z0.3999999999999999 E303.2500000000015 F2000
G1 X74 Y10 Z0.3999999999999999 E303.3000000000015 F2000
G1 X74 Y30 Z0.3999999999999999 E304.3000000000015 F2000
G1 X75 Y30 Z0.3999999999999999 E304.3500000000015 F2000
G1 X75 Y10 Z0.3999999999999999 E305.3500000000015 F2000
G1 X76 Y10 Z0.3999999999999999 E305.4000000000015 F2000
G1 X76 Y30 Z0.3999999999999999 E306.4000000000015 F2000
G1 X77 Y30 Z0.3999999999999999 E306.4500000000015 F2000
G1 X77 Y10 Z0.3999999999999999 E307.4500000000015 F2000
G1 X78 Y10 Z0.3999999999999999 E307.50000000000153 F2000
G1 X78 Y30 Z0.3999999999999999 E308.50000000000153 F2000
G1 X79 Y30 Z0.3999999999999999 E308.55000000000155 F2000
G1 X79 Y10 Z0.3999999999999999 E309.55000000000155 F2000
G1 X80 Y10 Z0.3999999999999999 E309.60000000000156 F2000
G1 X80 Y30 Z0.3999999999999999 E310.60000000000156 F2000
G1 X81 Y30 Z0.3999999999999999 E310.65000000000157 F2000
G1 X81 Y10 Z0.3999999999999999 E311.65000000000157 F2000
G1 X82 Y10 Z0.3999999999999999 E311.7000000000016 F2000
G1 X82 Y30 Z0.3999999999999999 E312.7000000000016 F2000
G1 X83 Y30 Z0.3999999999999999 E312.7500000000016 F2000
G1 X83 Y10 Z0.3999999999999999 E313.7500000000016 F2000
G1 X83 Y10 Z0.4499999999999999 E313.7500000000016 F2000
G1 X83 Y30 Z0.4499999999999999 E314.7500000000016 F2000
G1 X82 Y30 Z0.4499999999999999 E314.8000000000016 F2000
G1 X82 Y10 Z0.4499999999999999 E315.8000000000016 F2000
G1 X81 Y10 Z0.4499999999999999 E315.8500000000016 F2000
G1 X81 Y30 Z0.4499999999999999 E316.8500000000016 F2000
G1 X80 Y30 Z0.4499999999999999 E316.9000000000016 F2000
G1 X80 Y10 Z0.4499999999999999 E317.9000000000016 F2000
G1 X79 Y10 Z0.4499999999999999 E317.95000000000164 F2000
G1 X79 Y30 Z0.4499999999999999 E318.95000000000164 F2000
G1 X78 Y30 Z0.4499999999999999 E319.00000000000165 F2000
G1 X78 Y10 Z0.4499999999999999 E320.00000000000165 F2000
G1 X77 Y10 Z0.4499999999999999 E320.05000000000166 F2000
G1 X77 Y30 Z0.4499999999999999 E321.05000000000166 F2000
G1 X76 Y30 Z0.4499999999999999 E321.10000000000167 F2000
G1 X76 Y10 Z0.4499999999999999 E322.10000000000167 F2000
G1 X75 Y10 Z0.4499999999999999 E322.1500000000017 F2000
G1 X75 Y30 Z0.4499999999999999 E323.1500000000017 F2000
G1 X74 Y30 Z0.4499999999999999 E323.2000000000017 F2000
G1 X74 Y10 Z0.4499999999999999 E324.2000000000017 F2000
G1 X73 Y10 Z0.4499999999999999 E324.2500000000017 F2000
G1 X73 Y30 Z0.4499999999999999 E325.2500000000017 F2000
G1 X72 Y30 Z0.4499999999999999 E325.3000000000017 F2000
G1 X72 Y10 Z0.4499999999999999 E326.3000000000017 F2000
G1 X71 Y10 Z0.4499999999999999 E326.3500000000017 F2000
G1 X71 Y30 Z0.4499999999999999 E327.3500000000017 F2000
G1 X70 Y30 Z0.4499999999999999 E327.40000000000174 F2000
G1 X70 Y10 Z0.4499999999999999 E328.40000000000174 F2000
G1 X69 Y10 Z0.4499999999999999 E328.45000000000175 F2000
G1 X69 Y30 Z0.4499999999999999 E329.45000000000175 F2000
G1 X69 Y30 Z0.4999999999999999 E329.45000000000175 F2000
G1 X70 Y10 Z0.4999999999999999 E329.45000000000175 F2000
G1 X70 Y30 Z0.4999999999999999 E330.45000000000175 F2000
G1 X71 Y30 Z0.4999999999999999 E330.50000000000176 F2000
G1 X71 Y10 Z0.4999999999999999 E331.50000000000176 F2000
G1 X72 Y10 Z0.4999999999999999 E331.5500000000018 F2000
G1 X72 Y30 Z0.4999999999999999 E332.5500000000018 F2000
G1 X73 Y30 Z0.4999999999999999 E332.6000000000018 F2000
G1 X73 Y10 Z0.4999999999999999 E333.6000000000018 F2000
G1 X74 Y10 Z0.4999999999999999 E333.6500000000018 F2000
G1 X74 Y30 Z0.4999999999999999 E334.6500000000018 F2000
G1 X75 Y30 Z0.4999999999999999 E334.7000000000018 F2000
G1 X75 Y10 Z0.4999999999999999 E335.7000000000018 F2000
G1 X76 Y10 Z0.4999999999999999 E335.7500000000018 F2000
G1 X76 Y30 Z0.4999999999999999 E336.7500000000018 F2000
G1 X77 Y30 Z0.4999999999999999 E336.80000000000183 F2000
G1 X77 Y10 Z0.4999999999999999 E337.80000000000183 F2000
G1 X78 Y10 Z0.4999999999999999 E337.85000000000184 F2000
G1 X78 Y30 Z0.4999999999999999 E338.85000000000184 F2000
G1 X79 Y30 Z0.4999999999999999 E338.90000000000185 F2000
G1 X79 Y10 Z0.4999999999999999 E339.90000000000185 F2000
G1 X80 Y10 Z0.4999999999999999 E339.95000000000186 F2000
G1 X80 Y30 Z0.4999999999999999 E340.95000000000186 F2000
G1 X81 Y30 Z0.4999999999999999 E341.0000000000019 F2000
G1 X81 Y10 Z0.4999999999999999 E342.0000000000019 F2000
G1 X82 Y10 Z0.4999999999999999 E342.0500000000019 F2000
G1 X82 Y30 Z0.4999999999999999 E343.0500000000019 F2000
G1 X83 Y30 Z0.4999999999999999 E343.1000000000019 F2000
G1 X83 Y10 Z0.4999999999999999 E344.1000000000019 F2000
G1 X83 Y10 Z0.5499999999999999 E344.1000000000019 F2000
G1 X83 Y30 Z0.5499999999999999 E345.1000000000019 F2000
G1 X82 Y30 Z0.5499999999999999 E345.1500000000019 F2000
G1 X82 Y10 Z0.5499999999999999 E346.1500000000019 F2000
G1 X81 Y10 Z0.5499999999999999 E346.2000000000019 F2000
G1 X81 Y30 Z0.5499999999999999 E347.2000000000019 F2000
G1 X80 Y30 Z0.5499999999999999 E347.25000000000193 F2000
G1 X80 Y10 Z0.5499999999999999 E348.25000000000193 F2000
G1 X79 Y10 Z0.5499999999999999 E348.30000000000194 F2000
G1 X79 Y30 Z0.5499999999999999 E349.30000000000194 F2000
G1 X78 Y30 Z0.5499999999999999 E349.35000000000196 F2000
G1 X78 Y10 Z0.5499999999999999 E350.35000000000196 F2000
G1 X77 Y10 Z0.5499999999999999 E350.40000000000197 F2000
G1 X77 Y30 Z0.5499999999999999 E351.40000000000197 F2000
G1 X76 Y30 Z0.5499999999999999 E351.450000000002 F2000
G1 X76 Y10 Z0.5499999999999999 E352.450000000002 F2000
G1 X75 Y10 Z0.5499999999999999 E352.500000000002 F2000
G1 X75 Y30 Z0.5499999999999999 E353.500000000002 F2000
G1 X74 Y30 Z0.5499999999999999 E353.550000000002 F2000
G1 X74 Y10 Z0.5499999999999999 E354.550000000002 F2000
G1 X73 Y10 Z0.5499999999999999 E354.600000000002 F2000
G1 X73 Y30 Z0.5499999999999999 E355.600000000002 F2000
G1 X72 Y30 Z0.5499999999999999 E355.650000000002 F2000
G1 X72 Y10 Z0.5499999999999999 E356.650000000002 F2000
G1 X71 Y10 Z0.5499999999999999 E356.70000000000203 F2000
G1 X71 Y30 Z0.5499999999999999 E357.70000000000203 F2000
G1 X71 Y30 Z0.6 E357.70000000000203 F2000
G1 X72 Y10 Z0.6 E357.70000000000203 F2000
G1 X72 Y30 Z0.6 E358.70000000000203 F2000
G1 X73 Y30 Z0.6 E358.75000000000205 F2000
G1 X73 Y10 Z0.6 E359.75000000000205 F2000
G1 X74 Y10 Z0.6 E359.80000000000206 F2000
G1 X74 Y30 Z0.6 E360.80000000000206 F2000
G1 X75 Y30 Z0.6 E360.85000000000207 F2000
G1 X75 Y10 Z0.6 E361.85000000000207 F2000
G1 X76 Y10 Z0.6 E361.9000000000021 F2000
G1 X76 Y30 Z0.6 E362.9000000000021 F2000
G1 X77 Y30 Z0.6 E362.9500000000021 F2000
G1 X77 Y10 Z0.6 E363.9500000000021 F2000
G1 X78 Y10 Z0.6 E364.0000000000021 F2000
G1 X78 Y30 Z0.6 E365.0000000000021 F2000
G1 X79 Y30 Z0.6 E365.0500000000021 F2000
G1 X79 Y10 Z0.6 E366.0500000000021 F2000
G1 X80 Y10 Z0.6 E366.1000000000021 F2000
G1 X80 Y30 Z0.6 E367.1000000000021 F2000
G1 X81 Y30 Z0.6 E367.15000000000214 F2000
G1 X81 Y10 Z0.6 E368.15000000000214 F2000
G1 X82 Y10 Z0.6 E368.20000000000215 F2000
G1 X82 Y30 Z0.6 E369.20000000000215 F2000
G1 X83 Y30 Z0.6 E369.25000000000216 F2000
G1 X83 Y10 Z0.6 E370.25000000000216 F2000
G1 X83 Y10 Z0.65 E370.25000000000216 F2000
G1 X83 Y30 Z0.65 E371.25000000000216 F2000
G1 X82 Y30 Z0.65 E371.30000000000217 F2000
G1 X82 Y10 Z0.65 E372.30000000000217 F2000
G1 X81 Y10 Z0.65 E372.3500000000022 F2000
G1 X81 Y30 Z0.65 E373.3500000000022 F2000
G1 X80 Y30 Z0.65 E373.4000000000022 F2000
G1 X80 Y10 Z0.65 E374.4000000000022 F2000
G1 X79 Y10 Z0.65 E374.4500000000022 F2000
G1 X79 Y30 Z0.65 E375.4500000000022 F2000
G1 X78 Y30 Z0.65 E375.5000000000022 F2000
G1 X78 Y10 Z0.65 E376.5000000000022 F2000
G1 X77 Y10 Z0.65 E376.5500000000022 F2000
G1 X77 Y30 Z0.65 E377.5500000000022 F2000
G1 X76 Y30 Z0.65 E377.60000000000224 F2000
G1 X76 Y10 Z0.65 E378.60000000000224 F2000
G1 X75 Y10 Z0.65 E378.65000000000225 F2000
G1 X75 Y30 Z0.65 E379.65000000000225 F2000
G1 X74 Y30 Z0.65 E379.70000000000226 F2000
G1 X74 Y10 Z0.65 E380.70000000000226 F2000
G1 X73 Y10 Z0.65 E380.7500000000023 F2000
G1 X73 Y30 Z0.65 E381.7500000000023 F2000
G1 X73 Y30 Z0.7000000000000001 E381.7500000000023 F2000
G1 X74 Y10 Z0.7000000000000001 E381.7500000000023 F2000
G1 X74 Y30 Z0.7000000000000001 E382.7500000000023 F2000
G1 X75 Y30 Z0.7000000000000001 E382.8000000000023 F2000
G1 X75 Y10 Z0.7000000000000001 E383.8000000000023 F2000
G1 X76 Y10 Z0.7000000000000001 E383.8500000000023 F2000
G1 X76 Y30 Z0.7000000000000001 E384.8500000000023 F2000
G1 X77 Y30 Z0.7000000000000001 E384.9000000000023 F2000
G1 X77 Y10 Z0.7000000000000001 E385.9000000000023 F2000
G1 X78 Y10 Z0.7000000000000001 E385.9500000000023 F2000
G1 X78 Y30 Z0.7000000000000001 E386.9500000000023 F2000
G1 X79 Y30 Z0.7000000000000001 E387.00000000000233 F2000
G1 X79 Y10 Z0.7000000000000001 E388.00000000000233 F2000
G1 X80 Y10 Z0.7000000000000001 E388.05000000000234 F2000
G1 X80 Y30 Z0.7000000000000001 E389.05000000000234 F2000
G1 X81 Y30 Z0.7000000000000001 E389.10000000000235 F2000
G1 X81 Y10 Z0.7000000000000001 E390.10000000000235 F2000
G1 X82 Y10 Z0.7000000000000001 E390.15000000000236 F2000
G1 X82 Y30 Z0.7000000000000001 E391.15000000000236 F2000
G1 X83 Y30 Z0.7000000000000001 E391.2000000000024 F2000
G1 X83 Y10 Z0.7000000000000001 E392.2000000000024 F2000
G1 X83 Y10 Z0.7500000000000001 E392.2000000000024 F2000
G1 X83 Y30 Z0.7500000000000001 E393.2000000000024 F2000
G1 X82 Y30 Z0.7500000000000001 E393.2500000000024 F2000
G1 X82 Y10 Z0.7500000000000001 E394.2500000000024 F2000
G1 X81 Y10 Z0.7500000000000001 E394.3000000000024 F2000
G1 X81 Y30 Z0.7500000000000001 E395.3000000000024 F2000
G1 X80 Y30 Z0.7500000000000001 E395.3500000000024 F2000
G1 X80 Y10 Z0.7500000000000001 E396.3500000000024 F2000
G1 X79 Y10 Z0.7500000000000001 E396.4000000000024 F2000
G1 X79 Y30 Z0.7500000000000001 E397.4000000000024 F2000
G1 X78 Y30 Z0.7500000000000001 E397.45000000000243 F2000
G1 X78 Y10 Z0.7500000000000001 E398.45000000000243 F2000
G1 X77 Y10 Z0.7500000000000001 E398.50000000000244 F2000
G1 X77 Y30 Z0.7500000000000001 E399.50000000000244 F2000
G1 X76 Y30 Z0.7500000000000001 E399.55000000000246 F2000
G1 X76 Y10 Z0.7500000000000001 E400.55000000000246 F2000
G1 X75 Y10 Z0.7500000000000001 E400.60000000000247 F2000
G1 X75 Y30 Z0.7500000000000001 E401.60000000000247 F2000
G1 X75 Y30 Z0.8000000000000002 E401.60000000000247 F2000
G1 X76 Y10 Z0.8000000000000002 E401.60000000000247 F2000
G1 X76 Y30 Z0.8000000000000002 E402.60000000000247 F2000
G1 X77 Y30 Z0.8000000000000002 E402.6500000000025 F2000
G1 X77 Y10 Z0.8000000000000002 E403.6500000000025 F2000
G1 X78 Y10 Z0.8000000000000002 E403.7000000000025 F2000
G1 X78 Y30 Z0.8000000000000002 E404.7000000000025 F2000
G1 X79 Y30 Z0.8000000000000002 E404.7500000000025 F2000
G1 X79 Y10 Z0.8000000000000002 E405.7500000000025 F2000
G1 X80 Y10 Z0.8000000000000002 E405.8000000000025 F2000
G1 X80 Y30 Z0.8000000000000002 E406.8000000000025 F2000
G1 X81 Y30 Z0.8000000000000002 E406.8500000000025 F2000
G1 X81 Y10 Z0.8000000000000002 E407.8500000000025 F2000
G1 X82 Y10 Z0.8000000000000002 E407.90000000000254 F2000
G1 X82 Y30 Z0.8000000000000002 E408.90000000000254 F2000
G1 X83 Y30 Z0.8000000000000002 E408.95000000000255 F2000
G1 X83 Y10 Z0.8000000000000002 E409.95000000000255 F2000
G1 X83 Y10 Z0.8500000000000002 E409.95000000000255 F2000
G1 X83 Y30 Z0.8500000000000002 E410.95000000000255 F2000
G1 X82 Y30 Z0.8500000000000002 E411.00000000000256 F2000
G1 X82 Y10 Z0.8500000000000002 E412.00000000000256 F2000
G1 X81 Y10 Z0.8500000000000002 E412.05000000000257 F2000
G1 X81 Y30 Z0.8500000000000002 E413.05000000000257 F2000
G1 X80 Y30 Z0.8500000000000002 E413.1000000000026 F2000
G1 X80 Y10 Z0.8500000000000002 E414.1000000000026 F2000
G1 X79 Y10 Z0.8500000000000002 E414.1500000000026 F2000
G1 X79 Y30 Z0.8500000000000002 E415.1500000000026 F2000
G1 X78 Y30 Z0.8500000000000002 E415.2000000000026 F2000
G1 X78 Y10 Z0.8500000000000002 E416.2000000000026 F2000
G1 X77 Y10 Z0.8500000000000002 E416.2500000000026 F2000
G1 X77 Y30 Z0.8500000000000002 E417.2500000000026 F2000
G1 X77 Y30 Z0.9000000000000002 E417.2500000000026 F2000
G1 X78 Y10 Z0.9000000000000002 E417.2500000000026 F2000
G1 X78 Y30 Z0.9000000000000002 E418.2500000000026 F2000
G1 X79 Y30 Z0.9000000000000002 E418.3000000000026 F2000
G1 X79 Y10 Z0.9000000000000002 E419.3000000000026 F2000
G1 X80 Y10 Z0.9000000000000002 E419.35000000000264 F2000
G1 X80 Y30 Z0.9000000000000002 E420.35000000000264 F2000
G1 X81 Y30 Z0.9000000000000002 E420.40000000000265 F2000
G1 X81 Y10 Z0.9000000000000002 E421.40000000000265 F2000
G1 X82 Y10 Z0.9000000000000002 E421.45000000000266 F2000
G1 X82 Y30 Z0.9000000000000002 E422.45000000000266 F2000
G1 X83 Y30 Z0.9000000000000002 E422.5000000000027 F2000
G1 X83 Y10 Z0.9000000000000002 E423.5000000000027 F2000
G1 X83 Y10 Z0.9500000000000003 E423.5000000000027 F2000
G1 X83 Y30 Z0.9500000000000003 E424.5000000000027 F2000
G1 X82 Y30 Z0.9500000000000003 E424.5500000000027 F2000
G1 X82 Y10 Z0.9500000000000003 E425.5500000000027 F2000
G1 X81 Y10 Z0.9500000000000003 E425.6000000000027 F2000
G1 X81 Y30 Z0.9500000000000003 E426.6000000000027 F2000
G1 X80 Y30 Z0.9500000000000003 E426.6500000000027 F2000
G1 X80 Y10 Z0.9500000000000003 E427.6500000000027 F2000
G1 X79 Y10 Z0.9500000000000003 E427.7000000000027 F2000
G1 X79 Y30 Z0.9500000000000003 E428.7000000000027 F2000
G1 X79 Y30 Z1.0000000000000002 E428.7000000000027 F2000
G1 X80 Y10 Z1.0000000000000002 E428.7000000000027 F2000
G1 X80 Y30 Z1.0000000000000002 E429.7000000000027 F2000
G1 X81 Y30 Z1.0000000000000002 E429.75000000000273 F2000
G1 X81 Y10 Z1.0000000000000002 E430.75000000000273 F2000
G1 X82 Y10 Z1.0000000000000002 E430.80000000000274 F2000
G1 X82 Y30 Z1.0000000000000002 E431.80000000000274 F2000
G1 X83 Y30 Z1.0000000000000002 E431.85000000000275 F2000
G1 X83 Y10 Z1.0000000000000002 E432.85000000000275 F2000
G1 X83 Y10 Z1.0500000000000003 E432.85000000000275 F2000
G1 X83 Y30 Z1.0500000000000003 E433.85000000000275 F2000
G1 X82 Y30 Z1.0500000000000003 E433.90000000000276 F2000
G1 X82 Y10 Z1.0500000000000003 E434.90000000000276 F2000
G1 X81 Y10 Z1.0500000000000003 E434.9500000000028 F2000
G1 X81 Y30 Z1.0500000000000003 E435.9500000000028 F2000
G1 X81 Y30 Z1.1000000000000003 E435.9500000000028 F2000
G1 X82 Y10 Z1.1000000000000003 E435.9500000000028 F2000
G1 X82 Y30 Z1.1000000000000003 E436.9500000000028 F2000
G1 X83 Y30 Z1.1000000000000003 E437.0000000000028 F2000
G1 X83 Y10 Z1.1000000000000003 E438.0000000000028 F2000
G1 X83 Y10 Z1.1500000000000004 E438.0000000000028 F2000
G1 X83 Y30 Z1.1500000000000004 E439.0000000000028 F2000
G1 X83 Y30 Z1.2000000000000004 E439.0000000000028 F2000
G1 X113 Y10 Z0.19999999999999996 E439.0000000000028 F2000
G1 X113 Y30 Z0.19999999999999996 E440.0000000000028 F2000
G1 X114 Y30 Z0.19999999999999996 E440.0500000000028 F2000
G1 X114 Y10 Z0.19999999999999996 E441.0500000000028 F2000
G1 X115 Y10 Z0.19999999999999996 E441.1000000000028 F2000
G1 X115 Y30 Z0.19999999999999996 E442.1000000000028 F2000
G1 X116 Y30 Z0.19999999999999996 E442.1500000000028 F2000
G1 X116 Y10 Z0.19999999999999996 E443.1500000000028 F2000
G1 X117 Y10 Z0.19999999999999996 E443.20000000000283 F2000
G1 X117 Y30 Z0.19999999999999996 E444.20000000000283 F2000
G1 X118 Y30 Z0.19999999999999996 E444.25000000000284 F2000
G1 X118 Y10 Z0.19999999999999996 E445.25000000000284 F2000
G1 X119 Y10 Z0.19999999999999996 E445.30000000000285 F2000
G1 X119 Y30 Z0.19999999999999996 E446.30000000000285 F2000
G1 X120 Y30 Z0.19999999999999996 E446.35000000000286 F2000
G1 X120 Y10 Z0.19999999999999996 E447.35000000000286 F2000
G1 X121 Y10 Z0.19999999999999996 E447.4000000000029 F2000
G1 X121 Y30 Z0.19999999999999996 E448.4000000000029 F2000
G1 X122 Y30 Z0.19999999999999996 E448.4500000000029 F2000
G1 X122 Y10 Z0.19999999999999996 E449.4500000000029 F2000
G1 X123 Y10 Z0.19999999999999996 E449.5000000000029 F2000
G1 X123 Y30 Z0.19999999999999996 E450.5000000000029 F2000
G1 X124 Y30 Z0.19999999999999996 E450.5500000000029 F2000
G1 X124 Y10 Z0.19999999999999996 E451.5500000000029 F2000
G1 X125 Y10 Z0.19999999999999996 E451.6000000000029 F2000
G1 X125 Y30 Z0.19999999999999996 E452.6000000000029 F2000
G1 X126 Y30 Z0.19999999999999996 E452.65000000000293 F2000
G1 X126 Y10 Z0.19999999999999996 E453.65000000000293 F2000
G1 X127 Y10 Z0.19999999999999996 E453.70000000000294 F2000
G1 X127 Y30 Z0.19999999999999996 E454.70000000000294 F2000
G1 X128 Y30 Z0.19999999999999996 E454.75000000000296 F2000
G1 X128 Y10 Z0.19999999999999996 E455.75000000000296 F2000
G1 X129 Y10 Z0.19999999999999996 E455.80000000000297 F2000
G1 X129 Y30 Z0.19999999999999996 E456.80000000000297 F2000
G1 X130 Y30 Z0.19999999999999996 E456.850000000003 F2000
G1 X130 Y10 Z0.19999999999999996 E457.850000000003 F2000
G1 X131 Y10 Z0.19999999999999996 E457.900000000003 F2000
G1 X131 Y30 Z0.19999999999999996 E458.900000000003 F2000
G1 X132 Y30 Z0.19999999999999996 E458.950000000003 F2000
G1 X132 Y10 Z0.19999999999999996 E459.950000000003 F2000
G1 X132 Y10 Z0.24999999999999994 E459.950000000003 F2000
G1 X132 Y30 Z0.24999999999999994 E460.950000000003 F2000
G1 X131 Y30 Z0.24999999999999994 E461.000000000003 F2000
G1 X131 Y10 Z0.24999999999999994 E462.000000000003 F2000
G1 X130 Y10 Z0.24999999999999994 E462.050000000003 F2000
G1 X130 Y30 Z0.24999999999999994 E463.050000000003 F2000
G1 X129 Y30 Z0.24999999999999994 E463.10000000000304 F2000
G1 X129 Y10 Z0.24999999999999994 E464.10000000000304 F2000
G1 X128 Y10 Z0.24999999999999994 E464.15000000000305 F2000
G1 X128 Y30 Z0.24999999999999994 E465.15000000000305 F2000
G1 X127 Y30 Z0.24999999999999994 E465.20000000000306 F2000
G1 X127 Y10 Z0.24999999999999994 E466.20000000000306 F2000
G1 X126 Y10 Z0.24999999999999994 E466.25000000000307 F2000
G1 X126 Y30 Z0.24999999999999994 E467.25000000000307 F2000
G1 X125 Y30 Z0.24999999999999994 E467.3000000000031 F2000
G1 X125 Y10 Z0.24999999999999994 E468.3000000000031 F2000
G1 X124 Y10 Z0.24999999999999994 E468.3500000000031 F2000
G1 X124 Y30 Z0.24999999999999994 E469.3500000000031 F2000
G1 X123 Y30 Z0.24999999999999994 E469.4000000000031 F2000
G1 X123 Y10 Z0.24999999999999994 E470.4000000000031 F2000
G1 X122 Y10 Z0.24999999999999994 E470.4500000000031 F2000
G1 X122 Y30 Z0.24999999999999994 E471.4500000000031 F2000
G1 X121 Y30 Z0.24999999999999994 E471.5000000000031 F2000
G1 X121 Y10 Z0.24999999999999994 E472.5000000000031 F2000
G1 X120 Y10 Z0.24999999999999994 E472.55000000000314 F2000
G1 X120 Y30 Z0.24999999999999994 E473.55000000000314 F2000
G1 X119 Y30 Z0.24999999999999994 E473.60000000000315 F2000
G1 X119 Y10 Z0.24999999999999994 E474.60000000000315 F2000
G1 X118 Y10 Z0.24999999999999994 E474.65000000000316 F2000
G1 X118 Y30 Z0.24999999999999994 E475.65000000000316 F2000
G1 X117 Y30 Z0.24999999999999994 E475.7000000000032 F2000
G1 X117 Y10 Z0.24999999999999994 E476.7000000000032 F2000
G1 X116 Y10 Z0.24999999999999994 E476.7500000000032 F2000
G1 X116 Y30 Z0.24999999999999994 E477.7500000000032 F2000
G1 X115 Y30 Z0.24999999999999994 E477.8000000000032 F2000
G1 X115 Y10 Z0.24999999999999994 E478.8000000000032 F2000
G1 X114 Y10 Z0.24999999999999994 E478.8500000000032 F2000
G1 X114 Y30 Z0.24999999999999994 E479.8500000000032 F2000
G1 X114 Y30 Z0.29999999999999993 E479.8500000000032 F2000
G1 X115 Y10 Z0.29999999999999993 E479.8500000000032 F2000
G1 X115 Y30 Z0.29999999999999993 E480.8500000000032 F2000
G1 X116 Y30 Z0.29999999999999993 E480.9000000000032 F2000
G1 X116 Y10 Z0.29999999999999993 E481.9000000000032 F2000
G1 X117 Y10 Z0.29999999999999993 E481.95000000000323 F2000
G1 X117 Y30 Z0.29999999999999993 E482.95000000000323 F2000
G1 X118 Y30 Z0.29999999999999993 E483.00000000000324 F2000
G1 X118 Y10 Z0.29999999999999993 E484.00000000000324 F2000
G1 X119 Y10 Z0.29999999999999993 E484.05000000000325 F2000
G1 X119 Y30 Z0.29999999999999993 E485.05000000000325 F2000
G1 X120 Y30 Z0.29999999999999993 E485.10000000000326 F2000
G1 X120 Y10 Z0.29999999999999993 E486.10000000000326 F2000
G1 X121 Y10 Z0.29999999999999993 E486.1500000000033 F2000
G1 X121 Y30 Z0.29999999999999993 E487.1500000000033 F2000
G1 X122 Y30 Z0.29999999999999993 E487.2000000000033 F2000
G1 X122 Y10 Z0.29999999999999993 E488.2000000000033 F2000
G1 X123 Y10 Z0.29999999999999993 E488.2500000000033 F2000
G1 X123 Y30 Z0.29999999999999993 E489.2500000000033 F2000
G1 X124 Y30 Z0.29999999999999993 E489.3000000000033 F2000
G1 X124 Y10 Z0.29999999999999993 E490.3000000000033 F2000
G1 X125 Y10 Z0.29999999999999993 E490.3500000000033 F2000
G1 X125 Y30 Z0.29999999999999993 E491.3500000000033 F2000
G1 X126 Y30 Z0.29999999999999993 E491.40000000000333 F2000
G1 X126 Y10 Z0.29999999999999993 E492.40000000000333 F2000
G1 X127 Y10 Z0.29999999999999993 E492.45000000000334 F2000
G1 X127 Y30 Z0.29999999999999993 E493.45000000000334 F2000
G1 X128 Y30 Z0.29999999999999993 E493.50000000000335 F2000
G1 X128 Y10 Z0.29999999999999993 E494.50000000000335 F2000
G1 X129 Y10 Z0.29999999999999993 E494.55000000000337 F2000
G1 X129 Y30 Z0.29999999999999993 E495.55000000000337 F2000
G1 X130 Y30 Z0.29999999999999993 E495.6000000000034 F2000
G1 X130 Y10 Z0.29999999999999993 E496.6000000000034 F2000
G1 X131 Y10 Z0.29999999999999993 E496.6500000000034 F2000
G1 X131 Y30 Z0.29999999999999993 E497.6500000000034 F2000
G1 X132 Y30 Z0.29999999999999993 E497.7000000000034 F2000
G1 X132 Y10 Z0.29999999999999993 E498.7000000000034 F2000
G1 X132 Y10 Z0.3499999999999999 E498.7000000000034 F2000
G1 X132 Y30 Z0.3499999999999999 E499.7000000000034 F2000
G1 X131 Y30 Z0.3499999999999999 E499.7500000000034 F2000
G1 X131 Y10 Z0.3499999999999999 E500.7500000000034 F2000
G1 X130 Y10 Z0.3499999999999999 E500.8000000000034 F2000
G1 X130 Y30 Z0.3499999999999999 E501.8000000000034 F2000
G1 X129 Y30 Z0.3499999999999999 E501.85000000000343 F2000
G1 X129 Y10 Z0.3499999999999999 E502.85000000000343 F2000
G1 X128 Y10 Z0.3499999999999999 E502.90000000000344 F2000
G1 X128 Y30 Z0.3499999999999999 E503.90000000000344 F2000
G1 X127 Y30 Z0.3499999999999999 E503.95000000000346 F2000
G1 X127 Y10 Z0.3499999999999999 E504.95000000000346 F2000
G1 X126 Y10 Z0.3499999999999999 E505.00000000000347 F2000
G1 X126 Y30 Z0.3499999999999999 E506.00000000000347 F2000
G1 X125 Y30 Z0.3499999999999999 E506.0500000000035 F2000
G1 X125 Y10 Z0.3499999999999999 E507.0500000000035 F2000
G1 X124 Y10 Z0.3499999999999999 E507.1000000000035 F2000
G1 X124 Y30 Z0.3499999999999999 E508.1000000000035 F2000
G1 X123 Y30 Z0.3499999999999999 E508.1500000000035 F2000
G1 X123 Y10 Z0.3499999999999999 E509.1500000000035 F2000
G1 X122 Y10 Z0.3499999999999999 E509.2000000000035 F2000
G1 X122 Y30 Z0.3499999999999999 E510.2000000000035 F2000
G1 X121 Y30 Z0.3499999999999999 E510.2500000000035 F2000
G1 X121 Y10 Z0.3499999999999999 E511.2500000000035 F2000
G1 X120 Y10 Z0.3499999999999999 E511.30000000000354 F2000
G1 X120 Y30 Z0.3499999999999999 E512.3000000000036 F2000
G1 X119 Y30 Z0.3499999999999999 E512.3500000000035 F2000
G1 X119 Y10 Z0.3499999999999999 E513.3500000000035 F2000
G1 X118 Y10 Z0.3499999999999999 E513.4000000000035 F2000
G1 X118 Y30 Z0.3499999999999999 E514.4000000000035 F2000
G1 X117 Y30 Z0.3499999999999999 E514.4500000000035 F2000
G1 X117 Y10 Z0.3499999999999999 E515.4500000000035 F2000
G1 X116 Y10 Z0.3499999999999999 E515.5000000000034 F2000
G1 X116 Y30 Z0.3499999999999999 E516.5000000000034 F2000
G1 X116 Y30 Z0.3999999999999999 E516.5000000000034 F2000
G1 X117 Y10 Z0.3999999999999999 E516.5000000000034 F2000
G1 X117 Y30 Z0.3999999999999999 E517.5000000000034 F2000
G1 X118 Y30 Z0.3999999999999999 E517.5500000000034 F2000
G1 X118 Y10 Z0.3999999999999999 E518.5500000000034 F2000
G1 X119 Y10 Z0.3999999999999999 E518.6000000000033 F2000
G1 X119 Y30 Z0.3999999999999999 E519.6000000000033 F2000
G1 X120 Y30 Z0.3999999999999999 E519.6500000000033 F2000
G1 X120 Y10 Z0.3999999999999999 E520.6500000000033 F2000
G1 X121 Y10 Z0.3999999999999999 E520.7000000000032 F2000
G1 X121 Y30 Z0.3999999999999999 E521.7000000000032 F2000
G1 X122 Y30 Z0.3999999999999999 E521.7500000000032 F2000
G1 X122 Y10 Z0.3999999999999999 E522.7500000000032 F2000
G1 X123 Y10 Z0.3999999999999999 E522.8000000000031 F2000
G1 X123 Y30 Z0.3999999999999999 E523.8000000000031 F2000
G1 X124 Y30 Z0.3999999999999999 E523.8500000000031 F2000
G1 X124 Y10 Z0.3999999999999999 E524.8500000000031 F2000
G1 X125 Y10 Z0.3999999999999999 E524.900000000003 F2000
G1 X125 Y30 Z0.3999999999999999 E525.900000000003 F2000
G1 X126 Y30 Z0.3999999999999999 E525.950000000003 F2000
G1 X126 Y10 Z0.3999999999999999 E526.950000000003 F2000
G1 X127 Y10 Z0.3999999999999999 E527.000000000003 F2000
G1 X127 Y30 Z0.3999999999999999 E528.000000000003 F2000
G1 X128 Y30 Z0.3999999999999999 E528.0500000000029 F2000
G1 X128 Y10 Z0.3999999999999999 E529.0500000000029 F2000
G1 X129 Y10 Z0.3999999999999999 E529.1000000000029 F2000
G1 X129 Y30 Z0.3999999999999999 E530.1000000000029 F2000
G1 X130 Y30 Z0.3999999999999999 E530.1500000000028 F2000
G1 X130 Y10 Z0.3999999999999999 E531.1500000000028 F2000
G1 X131 Y10 Z0.3999999999999999 E531.2000000000028 F2000
G1 X131 Y30 Z0.3999999999999999 E532.2000000000028 F2000
G1 X132 Y30 Z0.3999999999999999 E532.2500000000027 F2000
G1 X132 Y10 Z0.3999999999999999 E533.2500000000027 F2000
G1 X132 Y10 Z0.4499999999999999 E533.2500000000027 F2000
G1 X132 Y30 Z0.4499999999999999 E534.2500000000027 F2000
G1 X131 Y30 Z0.4499999999999999 E534.3000000000027 F2000
G1 X131 Y10 Z0.4499999999999999 E535.3000000000027 F2000
G1 X130 Y10 Z0.4499999999999999 E535.3500000000026 F2000
G1 X130 Y30 Z0.4499999999999999 E536.3500000000026 F2000
G1 X129 Y30 Z0.4499999999999999 E536.4000000000026 F2000
G1 X129 Y10 Z0.4499999999999999 E537.4000000000026 F2000
G1 X128 Y10 Z0.4499999999999999 E537.4500000000025 F2000
G1 X128 Y30 Z0.4499999999999999 E538.4500000000025 F2000
G1 X127 Y30 Z0.4499999999999999 E538.5000000000025 F2000
G1 X127 Y10 Z0.4499999999999999 E539.5000000000025 F2000
G1 X126 Y10 Z0.4499999999999999 E539.5500000000025 F2000
G1 X126 Y30 Z0.4499999999999999 E540.5500000000025 F2000
G1 X125 Y30 Z0.4499999999999999 E540.6000000000024 F2000
G1 X125 Y10 Z0.4499999999999999 E541.6000000000024 F2000
G1 X124 Y10 Z0.4499999999999999 E541.6500000000024 F2000
G1 X124 Y30 Z0.4499999999999999 E542.6500000000024 F2000
G1 X123 Y30 Z0.4499999999999999 E542.7000000000023 F2000
G1 X123 Y10 Z0.4499999999999999 E543.7000000000023 F2000
G1 X122 Y10 Z0.4499999999999999 E543.7500000000023 F2000
G1 X122 Y30 Z0.4499999999999999 E544.7500000000023 F2000
G1 X121 Y30 Z0.4499999999999999 E544.8000000000022 F2000
G1 X121 Y10 Z0.4499999999999999 E545.8000000000022 F2000
G1 X120 Y10 Z0.4499999999999999 E545.8500000000022 F2000
G1 X120 Y30 Z0.4499999999999999 E546.8500000000022 F2000
G1 X119 Y30 Z0.4499999999999999 E546.9000000000021 F2000
G1 X119 Y10 Z0.4499999999999999 E547.9000000000021 F2000
G1 X118 Y10 Z0.4499999999999999 E547.9500000000021 F2000
G1 X118 Y30 Z0.4499999999999999 E548.9500000000021 F2000
G1 X118 Y30 Z0.4999999999999999 E548.9500000000021 F2000
G1 X119 Y10 Z0.4999999999999999 E548.9500000000021 F2000
G1 X119 Y30 Z0.4999999999999999 E549.9500000000021 F2000
G1 X120 Y30 Z0.4999999999999999 E550.000000000002 F2000
G1 X120 Y10 Z0.4999999999999999 E551.000000000002 F2000
G1 X121 Y10 Z0.4999999999999999 E551.050000000002 F2000
G1 X121 Y30 Z0.4999999999999999 E552.050000000002 F2000
G1 X122 Y30 Z0.4999999999999999 E552.100000000002 F2000
G1 X122 Y10 Z0.4999999999999999 E553.100000000002 F2000
G1 X123 Y10 Z0.4999999999999999 E553.1500000000019 F2000
G1 X123 Y30 Z0.4999999999999999 E554.1500000000019 F2000
G1 X124 Y30 Z0.4999999999999999 E554.2000000000019 F2000
G1 X124 Y10 Z0.4999999999999999 E555.2000000000019 F2000
G1 X125 Y10 Z0.4999999999999999 E555.2500000000018 F2000
G1 X125 Y30 Z0.4999999999999999 E556.2500000000018 F2000
G1 X126 Y30 Z0.4999999999999999 E556.3000000000018 F2000
G1 X126 Y10 Z0.4999999999999999 E557.3000000000018 F2000
G1 X127 Y10 Z0.4999999999999999 E557.3500000000017 F2000
G1 X127 Y30 Z0.4999999999999999 E558.3500000000017 F2000
G1 X128 Y30 Z0.4999999999999999 E558.4000000000017 F2000
G1 X128 Y10 Z0.4999999999999999 E559.4000000000017 F2000
G1 X129 Y10 Z0.4999999999999999 E559.4500000000016 F2000
G1 X129 Y30 Z0.4999999999999999 E560.4500000000016 F2000
G1 X130 Y30 Z0.4999999999999999 E560.5000000000016 F2000
G1 X130 Y10 Z0.4999999999999999 E561.5000000000016 F2000
G1 X131 Y10 Z0.4999999999999999 E561.5500000000015 F2000
G1 X131 Y30 Z0.4999999999999999 E562.5500000000015 F2000
G1 X132 Y30 Z0.4999999999999999 E562.6000000000015 F2000
G1 X132 Y10 Z0.4999999999999999 E563.6000000000015 F2000
G1 X132 Y10 Z0.5499999999999999 E563.6000000000015 F2000
G1 X132 Y30 Z0.5499999999999999 E564.6000000000015 F2000
G1 X131 Y30 Z0.5499999999999999 E564.6500000000015 F2000
G1 X131 Y10 Z0.5499999999999999 E565.6500000000015 F2000
G1 X130 Y10 Z0.5499999999999999 E565.7000000000014 F2000
G1 X130 Y30 Z0.5499999999999999 E566.7000000000014 F2000
G1 X129 Y30 Z0.5499999999999999 E566.7500000000014 F2000
G1 X129 Y10 Z0.5499999999999999 E567.7500000000014 F2000
G1 X128 Y10 Z0.5499999999999999 E567.8000000000013 F2000
G1 X128 Y30 Z0.5499999999999999 E568.8000000000013 F2000
G1 X127 Y30 Z0.5499999999999999 E568.8500000000013 F2000
G1 X127 Y10 Z0.5499999999999999 E569.8500000000013 F2000
G1 X126 Y10 Z0.5499999999999999 E569.9000000000012 F2000
G1 X126 Y30 Z0.5499999999999999 E570.9000000000012 F2000
G1 X125 Y30 Z0.5499999999999999 E570.9500000000012 F2000
G1 X125 Y10 Z0.5499999999999999 E571.9500000000012 F2000
G1 X124 Y10 Z0.5499999999999999 E572.0000000000011 F2000
G1 X124 Y30 Z0.5499999999999999 E573.0000000000011 F2000
G1 X123 Y30 Z0.5499999999999999 E573.0500000000011 F2000
G1 X123 Y10 Z0.5499999999999999 E574.0500000000011 F2000
G1 X122 Y10 Z0.5499999999999999 E574.100000000001 F2000
G1 X122 Y30 Z0.5499999999999999 E575.100000000001 F2000
G1 X121 Y30 Z0.5499999999999999 E575.150000000001 F2000
G1 X121 Y10 Z0.5499999999999999 E576.150000000001 F2000
G1 X120 Y10 Z0.5499999999999999 E576.200000000001 F2000
G1 X120 Y30 Z0.5499999999999999 E577.200000000001 F2000
G1 X120 Y30 Z0.6 E577.200000000001 F2000
G1 X121 Y10 Z0.6 E577.200000000001 F2000
G1 X121 Y30 Z0.6 E578.200000000001 F2000
G1 X122 Y30 Z0.6 E578.2500000000009 F2000
G1 X122 Y10 Z0.6 E579.2500000000009 F2000
G1 X123 Y10 Z0.6 E579.3000000000009 F2000
G1 X123 Y30 Z0.6 E580.3000000000009 F2000
G1 X124 Y30 Z0.6 E580.3500000000008 F2000
G1 X124 Y10 Z0.6 E581.3500000000008 F2000
G1 X125 Y10 Z0.6 E581.4000000000008 F2000
G1 X125 Y30 Z0.6 E582.4000000000008 F2000
G1 X126 Y30 Z0.6 E582.4500000000007 F2000
G1 X126 Y10 Z0.6 E583.4500000000007 F2000
G1 X127 Y10 Z0.6 E583.5000000000007 F2000
G1 X127 Y30 Z0.6 E584.5000000000007 F2000
G1 X128 Y30 Z0.6 E584.5500000000006 F2000
G1 X128 Y10 Z0.6 E585.5500000000006 F2000
G1 X129 Y10 Z0.6 E585.6000000000006 F2000
G1 X129 Y30 Z0.6 E586.6000000000006 F2000
G1 X130 Y30 Z0.6 E586.6500000000005 F2000
G1 X130 Y10 Z0.6 E587.6500000000005 F2000
G1 X131 Y10 Z0.6 E587.7000000000005 F2000
G1 X131 Y30 Z0.6 E588.7000000000005 F2000
G1 X132 Y30 Z0.6 E588.7500000000005 F2000
G1 X132 Y10 Z0.6 E589.7500000000005 F2000
G1 X132 Y10 Z0.65 E589.7500000000005 F2000
G1 X132 Y30 Z0.65 E590.7500000000005 F2000
G1 X131 Y30 Z0.65 E590.8000000000004 F2000
G1 X131 Y10 Z0.65 E591.8000000000004 F2000
G1 X130 Y10 Z0.65 E591.8500000000004 F2000
G1 X130 Y30 Z0.65 E592.8500000000004 F2000
G1 X129 Y30 Z0.65 E592.9000000000003 F2000
G1 X129 Y10 Z0.65 E593.9000000000003 F2000
G1 X128 Y10 Z0.65 E593.9500000000003 F2000
G1 X128 Y30 Z0.65 E594.9500000000003 F2000
G1 X127 Y30 Z0.65 E595.0000000000002 F2000
G1 X127 Y10 Z0.65 E596.0000000000002 F2000
G1 X126 Y10 Z0.65 E596.0500000000002 F2000
G1 X126 Y30 Z0.65 E597.0500000000002 F2000
G1 X125 Y30 Z0.65 E597.1000000000001 F2000
G1 X125 Y10 Z0.65 E598.1000000000001 F2000
G1 X124 Y10 Z0.65 E598.1500000000001 F2000
G1 X124 Y30 Z0.65 E599.1500000000001 F2000
G1 X123 Y30 Z0.65 E599.2 F2000
G1 X123 Y10 Z0.65 E600.2 F2000
G1 X122 Y10 Z0.65 E600.25 F2000
G1 X122 Y30 Z0.65 E601.25 F2000
G1 X122 Y30 Z0.7000000000000001 E601.25 F2000
G1 X123 Y10 Z0.7000000000000001 E601.25 F2000
G1 X123 Y30 Z0.7000000000000001 E602.25 F2000
G1 X124 Y30 Z0.7000000000000001 E602.3 F2000
G1 X124 Y10 Z0.7000000000000001 E603.3 F2000
G1 X125 Y10 Z0.7000000000000001 E603.3499999999999 F2000
G1 X125 Y30 Z0.7000000000000001 E604.3499999999999 F2000
G1 X126 Y30 Z0.7000000000000001 E604.3999999999999 F2000
G1 X126 Y10 Z0.7000000000000001 E605.3999999999999 F2000
G1 X127 Y10 Z0.7000000000000001 E605.4499999999998 F2000
G1 X127 Y30 Z0.7000000000000001 E606.4499999999998 F2000
G1 X128 Y30 Z0.7000000000000001 E606.4999999999998 F2000
G1 X128 Y10 Z0.7000000000000001 E607.4999999999998 F2000
G1 X129 Y10 Z0.7000000000000001 E607.5499999999997 F2000
G1 X129 Y30 Z0.7000000000000001 E608.5499999999997 F2000
G1 X130 Y30 Z0.7000000000000001 E608.5999999999997 F2000
G1 X130 Y10 Z0.7000000000000001 E609.5999999999997 F2000
G1 X131 Y10 Z0.7000000000000001 E609.6499999999996 F2000
G1 X131 Y30 Z0.7000000000000001 E610.6499999999996 F2000
G1 X132 Y30 Z0.7000000000000001 E610.6999999999996 F2000
G1 X132 Y10 Z0.7000000000000001 E611.6999999999996 F2000
G1 X132 Y10 Z0.7500000000000001 E611.6999999999996 F2000
G1 X132 Y30 Z0.7500000000000001 E612.6999999999996 F2000
G1 X131 Y30 Z0.7500000000000001 E612.7499999999995 F2000
G1 X131 Y10 Z0.7500000000000001 E613.7499999999995 F2000
G1 X130 Y10 Z0.7500000000000001 E613.7999999999995 F2000
G1 X130 Y30 Z0.7500000000000001 E614.7999999999995 F2000
G1 X129 Y30 Z0.7500000000000001 E614.8499999999995 F2000
G1 X129 Y10 Z0.7500000000000001 E615.8499999999995 F2000
G1 X128 Y10 Z0.7500000000000001 E615.8999999999994 F2000
G1 X128 Y30 Z0.7500000000000001 E616.8999999999994 F2000
G1 X127 Y30 Z0.7500000000000001 E616.9499999999994 F2000
G1 X127 Y10 Z0.7500000000000001 E617.9499999999994 F2000
G1 X126 Y10 Z0.7500000000000001 E617.9999999999993 F2000
G1 X126 Y30 Z0.7500000000000001 E618.9999999999993 F2000
G1 X125 Y30 Z0.7500000000000001 E619.0499999999993 F2000
G1 X125 Y10 Z0.7500000000000001 E620.0499999999993 F2000
G1 X124 Y10 Z0.7500000000000001 E620.0999999999992 F2000
G1 X124 Y30 Z0.7500000000000001 E621.0999999999992 F2000
G1 X124 Y30 Z0.8000000000000002 E621.0999999999992 F2000
G1 X125 Y10 Z0.8000000000000002 E621.0999999999992 F2000
G1 X125 Y30 Z0.8000000000000002 E622.0999999999992 F2000
G1 X126 Y30 Z0.8000000000000002 E622.1499999999992 F2000
G1 X126 Y10 Z0.8000000000000002 E623.1499999999992 F2000
G1 X127 Y10 Z0.8000000000000002 E623.1999999999991 F2000
G1 X127 Y30 Z0.8000000000000002 E624.1999999999991 F2000
G1 X128 Y30 Z0.8000000000000002 E624.2499999999991 F2000
G1 X128 Y10 Z0.8000000000000002 E625.2499999999991 F2000
G1 X129 Y10 Z0.8000000000000002 E625.299999999999 F2000
G1 X129 Y30 Z0.8000000000000002 E626.299999999999 F2000
G1 X130 Y30 Z0.8000000000000002 E626.349999999999 F2000
G1 X130 Y10 Z0.8000000000000002 E627.349999999999 F2000
G1 X131 Y10 Z0.8000000000000002 E627.399999999999 F2000
G1 X131 Y30 Z0.8000000000000002 E628.399999999999 F2000
G1 X132 Y30 Z0.8000000000000002 E628.4499999999989 F2000
G1 X132 Y10 Z0.8000000000000002 E629.4499999999989 F2000
G1 X132 Y10 Z0.8500000000000002 E629.4499999999989 F2000
G1 X132 Y30 Z0.8500000000000002 E630.4499999999989 F2000
G1 X131 Y30 Z0.8500000000000002 E630.4999999999989 F2000
G1 X131 Y10 Z0.8500000000000002 E631.4999999999989 F2000
G1 X130 Y10 Z0.8500000000000002 E631.5499999999988 F2000
G1 X130 Y30 Z0.8500000000000002 E632.5499999999988 F2000
G1 X129 Y30 Z0.8500000000000002 E632.5999999999988 F2000
G1 X129 Y10 Z0.8500000000000002 E633.5999999999988 F2000
G1 X128 Y10 Z0.8500000000000002 E633.6499999999987 F2000
G1 X128 Y30 Z0.8500000000000002 E634.6499999999987 F2000
G1 X127 Y30 Z0.8500000000000002 E634.6999999999987 F2000
G1 X127 Y10 Z0.8500000000000002 E635.6999999999987 F2000
G1 X126 Y10 Z0.8500000000000002 E635.7499999999986 F2000
G1 X126 Y30 Z0.8500000000000002 E636.7499999999986 F2000
G1 X126 Y30 Z0.9000000000000002 E636.7499999999986 F2000
G1 X127 Y10 Z0.9000000000000002 E636.7499999999986 F2000
G1 X127 Y30 Z0.9000000000000002 E637.7499999999986 F2000
G1 X128 Y30 Z0.9000000000000002 E637.7999999999986 F2000
G1 X128 Y10 Z0.9000000000000002 E638.7999999999986 F2000
G1 X129 Y10 Z0.9000000000000002 E638.8499999999985 F2000
G1 X129 Y30 Z0.9000000000000002 E639.8499999999985 F2000
G1 X130 Y30 Z0.9000000000000002 E639.8999999999985 F2000
G1 X130 Y10 Z0.9000000000000002 E640.8999999999985 F2000
G1 X131 Y10 Z0.9000000000000002 E640.9499999999985 F2000
G1 X131 Y30 Z0.9000000000000002 E641.9499999999985 F2000
G1 X132 Y30 Z0.9000000000000002 E641.9999999999984 F2000
G1 X132 Y10 Z0.9000000000000002 E642.9999999999984 F2000
G1 X132 Y10 Z0.9500000000000003 E642.9999999999984 F2000
G1 X132 Y30 Z0.9500000000000003 E643.9999999999984 F2000
G1 X131 Y30 Z0.9500000000000003 E644.0499999999984 F2000
G1 X131 Y10 Z0.9500000000000003 E645.0499999999984 F2000
G1 X130 Y10 Z0.9500000000000003 E645.0999999999983 F2000
G1 X130 Y30 Z0.9500000000000003 E646.0999999999983 F2000
G1 X129 Y30 Z0.9500000000000003 E646.1499999999983 F2000
G1 X129 Y10 Z0.9500000000000003 E647.1499999999983 F2000
G1 X128 Y10 Z0.9500000000000003 E647.1999999999982 F2000
G1 X128 Y30 Z0.9500000000000003 E648.1999999999982 F2000
G1 X128 Y30 Z1.0000000000000002 E648.1999999999982 F2000
G1 X129 Y10 Z1.0000000000000002 E648.1999999999982 F2000
G1 X129 Y30 Z1.0000000000000002 E649.1999999999982 F2000
G1 X130 Y30 Z1.0000000000000002 E649.2499999999982 F2000
G1 X130 Y10 Z1.0000000000000002 E650.2499999999982 F2000
G1 X131 Y10 Z1.0000000000000002 E650.2999999999981 F2000
G1 X131 Y30 Z1.0000000000000002 E651.2999999999981 F2000
G1 X132 Y30 Z1.0000000000000002 E651.3499999999981 F2000
G1 X132 Y10 Z1.0000000000000002 E652.3499999999981 F2000
G1 X132 Y10 Z1.0500000000000003 E652.3499999999981 F2000
G1 X132 Y30 Z1.0500000000000003 E653.3499999999981 F2000
G1 X131 Y30 Z1.0500000000000003 E653.399999999998 F2000
G1 X131 Y10 Z1.0500000000000003 E654.399999999998 F2000
G1 X130 Y10 Z1.0500000000000003 E654.449999999998 F2000
G1 X130 Y30 Z1.0500000000000003 E655.449999999998 F2000
G1 X130 Y30 Z1.1000000000000003 E655.449999999998 F2000
G1 X131 Y10 Z1.1000000000000003 E655.449999999998 F2000
G1 X131 Y30 Z1.1000000000000003 E656.449999999998 F2000
G1 X132 Y30 Z1.1000000000000003 E656.499999999998 F2000
G1 X132 Y10 Z1.1000000000000003 E657.499999999998 F2000
G1 X132 Y10 Z1.1500000000000004 E657.499999999998 F2000
G1 X132 Y30 Z1.1500000000000004 E658.499999999998 F2000
G1 X132 Y30 Z1.2000000000000004 E658.499999999998 F2000
G1 X162 Y10 Z0.19999999999999996 E658.499999999998 F2000
G1 X162 Y30 Z0.19999999999999996 E659.499999999998 F2000
G1 X163 Y30 Z0.19999999999999996 E659.5499999999979 F2000
G1 X163 Y10 Z0.19999999999999996 E660.5499999999979 F2000
G1 X164 Y10 Z0.19999999999999996 E660.5999999999979 F2000
G1 X164 Y30 Z0.19999999999999996 E661.5999999999979 F2000
G1 X165 Y30 Z0.19999999999999996 E661.6499999999978 F2000
G1 X165 Y10 Z0.19999999999999996 E662.6499999999978 F2000
G1 X166 Y10 Z0.19999999999999996 E662.6999999999978 F2000
G1 X166 Y30 Z0.19999999999999996 E663.6999999999978 F2000
G1 X167 Y30 Z0.19999999999999996 E663.7499999999977 F2000
G1 X167 Y10 Z0.19999999999999996 E664.7499999999977 F2000
G1 X168 Y10 Z0.19999999999999996 E664.7999999999977 F2000
G1 X168 Y30 Z0.19999999999999996 E665.7999999999977 F2000
G1 X169 Y30 Z0.19999999999999996 E665.8499999999976 F2000
G1 X169 Y10 Z0.19999999999999996 E666.8499999999976 F2000
G1 X170 Y10 Z0.19999999999999996 E666.8999999999976 F2000
G1 X170 Y30 Z0.19999999999999996 E667.8999999999976 F2000
G1 X171 Y30 Z0.19999999999999996 E667.9499999999975 F2000
G1 X171 Y10 Z0.19999999999999996 E668.9499999999975 F2000
G1 X172 Y10 Z0.19999999999999996 E668.9999999999975 F2000
G1 X172 Y30 Z0.19999999999999996 E669.9999999999975 F2000
G1 X173 Y30 Z0.19999999999999996 E670.0499999999975 F2000
G1 X173 Y10 Z0.19999999999999996 E671.0499999999975 F2000
G1 X174 Y10 Z0.19999999999999996 E671.0999999999974 F2000
G1 X174 Y30 Z0.19999999999999996 E672.0999999999974 F2000
G1 X175 Y30 Z0.19999999999999996 E672.1499999999974 F2000
G1 X175 Y10 Z0.19999999999999996 E673.1499999999974 F2000
G1 X176 Y10 Z0.19999999999999996 E673.1999999999973 F2000
G1 X176 Y30 Z0.19999999999999996 E674.1999999999973 F2000
G1 X177 Y30 Z0.19999999999999996 E674.2499999999973 F2000
G1 X177 Y10 Z0.19999999999999996 E675.2499999999973 F2000
G1 X178 Y10 Z0.19999999999999996 E675.2999999999972 F2000
G1 X178 Y30 Z0.19999999999999996 E676.2999999999972 F2000
G1 X179 Y30 Z0.19999999999999996 E676.3499999999972 F2000
G1 X179 Y10 Z0.19999999999999996 E677.3499999999972 F2000
G1 X180 Y10 Z0.19999999999999996 E677.3999999999971 F2000
G1 X180 Y30 Z0.19999999999999996 E678.3999999999971 F2000
G1 X181 Y30 Z0.19999999999999996 E678.4499999999971 F2000
G1 X181 Y10 Z0.19999999999999996 E679.4499999999971 F2000
G1 X181 Y10 Z0.24999999999999994 E679.4499999999971 F2000
G1 X181 Y30 Z0.24999999999999994 E680.4499999999971 F2000
G1 X180 Y30 Z0.24999999999999994 E680.499999999997 F2000
G1 X180 Y10 Z0.24999999999999994 E681.499999999997 F2000
G1 X179 Y10 Z0.24999999999999994 E681.549999999997 F2000
G1 X179 Y30 Z0.24999999999999994 E682.549999999997 F2000
G1 X178 Y30 Z0.24999999999999994 E682.599999999997 F2000
G1 X178 Y10 Z0.24999999999999994 E683.599999999997 F2000
G1 X177 Y10 Z0.24999999999999994 E683.6499999999969 F2000
G1 X177 Y30 Z0.24999999999999994 E684.6499999999969 F2000
G1 X176 Y30 Z0.24999999999999994 E684.6999999999969 F2000
G1 X176 Y10 Z0.24999999999999994 E685.6999999999969 F2000
G1 X175 Y10 Z0.24999999999999994 E685.7499999999968 F2000
G1 X175 Y30 Z0.24999999999999994 E686.7499999999968 F2000
G1 X174 Y30 Z0.24999999999999994 E686.7999999999968 F2000
G1 X174 Y10 Z0.24999999999999994 E687.7999999999968 F2000
G1 X173 Y10 Z0.24999999999999994 E687.8499999999967 F2000
G1 X173 Y30 Z0.24999999999999994 E688.8499999999967 F2000
G1 X172 Y30 Z0.24999999999999994 E688.8999999999967 F2000
G1 X172 Y10 Z0.24999999999999994 E689.8999999999967 F2000
G1 X171 Y10 Z0.24999999999999994 E689.9499999999966 F2000
G1 X171 Y30 Z0.24999999999999994 E690.9499999999966 F2000
G1 X170 Y30 Z0.24999999999999994 E690.9999999999966 F2000
G1 X170 Y10 Z0.24999999999999994 E691.9999999999966 F2000
G1 X169 Y10 Z0.24999999999999994 E692.0499999999965 F2000
G1 X169 Y30 Z0.24999999999999994 E693.0499999999965 F2000
G1 X168 Y30 Z0.24999999999999994 E693.0999999999965 F2000
G1 X168 Y10 Z0.24999999999999994 E694.0999999999965 F2000
G1 X167 Y10 Z0.24999999999999994 E694.1499999999965 F2000
G1 X167 Y30 Z0.24999999999999994 E695.1499999999965 F2000
G1 X166 Y30 Z0.24999999999999994 E695.1999999999964 F2000
G1 X166 Y10 Z0.24999999999999994 E696.1999999999964 F2000
G1 X165 Y10 Z0.24999999999999994 E696.2499999999964 F2000
G1 X165 Y30 Z0.24999999999999994 E697.2499999999964 F2000
G1 X164 Y30 Z0.24999999999999994 E697.2999999999963 F2000
G1 X164 Y10 Z0.24999999999999994 E698.2999999999963 F2000
G1 X163 Y10 Z0.24999999999999994 E698.3499999999963 F2000
G1 X163 Y30 Z0.24999999999999994 E699.3499999999963 F2000
G1 X163 Y30 Z0.29999999999999993 E699.3499999999963 F2000
G1 X164 Y10 Z0.29999999999999993 E699.3499999999963 F2000
G1 X164 Y30 Z0.29999999999999993 E700.3499999999963 F2000
G1 X165 Y30 Z0.29999999999999993 E700.3999999999962 F2000
G1 X165 Y10 Z0.29999999999999993 E701.3999999999962 F2000
G1 X166 Y10 Z0.29999999999999993 E701.4499999999962 F2000
G1 X166 Y30 Z0.29999999999999993 E702.4499999999962 F2000
G1 X167 Y30 Z0.29999999999999993 E702.4999999999961 F2000
G1 X167 Y10 Z0.29999999999999993 E703.4999999999961 F2000
G1 X168 Y10 Z0.29999999999999993 E703.5499999999961 F2000
G1 X168 Y30 Z0.29999999999999993 E704.5499999999961 F2000
G1 X169 Y30 Z0.29999999999999993 E704.599999999996 F2000
G1 X169 Y10 Z0.29999999999999993 E705.599999999996 F2000
G1 X170 Y10 Z0.29999999999999993 E705.649999999996 F2000
G1 X170 Y30 Z0.29999999999999993 E706.649999999996 F2000
G1 X171 Y30 Z0.29999999999999993 E706.699999999996 F2000
G1 X171 Y10 Z0.29999999999999993 E707.699999999996 F2000
G1 X172 Y10 Z0.29999999999999993 E707.7499999999959 F2000
G1 X172 Y30 Z0.29999999999999993 E708.7499999999959 F2000
G1 X173 Y30 Z0.29999999999999993 E708.7999999999959 F2000
G1 X173 Y10 Z0.29999999999999993 E709.7999999999959 F2000
G1 X174 Y10 Z0.29999999999999993 E709.8499999999958 F2000
G1 X174 Y30 Z0.29999999999999993 E710.8499999999958 F2000
G1 X175 Y30 Z0.29999999999999993 E710.8999999999958 F2000
G1 X175 Y10 Z0.29999999999999993 E711.8999999999958 F2000
G1 X176 Y10 Z0.29999999999999993 E711.9499999999957 F2000
G1 X176 Y30 Z0.29999999999999993 E712.9499999999957 F2000
G1 X177 Y30 Z0.29999999999999993 E712.9999999999957 F2000
G1 X177 Y10 Z0.29999999999999993 E713.9999999999957 F2000
G1 X178 Y10 Z0.29999999999999993 E714.0499999999956 F2000
G1 X178 Y30 Z0.29999999999999993 E715.0499999999956 F2000
G1 X179 Y30 Z0.29999999999999993 E715.0999999999956 F2000
G1 X179 Y10 Z0.29999999999999993 E716.0999999999956 F2000
G1 X180 Y10 Z0.29999999999999993 E716.1499999999955 F2000
G1 X180 Y30 Z0.29999999999999993 E717.1499999999955 F2000
G1 X181 Y30 Z0.29999999999999993 E717.1999999999955 F2000
G1 X181 Y10 Z0.29999999999999993 E718.1999999999955 F2000
G1 X181 Y10 Z0.3499999999999999 E718.1999999999955 F2000
G1 X181 Y30 Z0.3499999999999999 E719.1999999999955 F2000
G1 X180 Y30 Z0.3499999999999999 E719.2499999999955 F2000
G1 X180 Y10 Z0.3499999999999999 E720.2499999999955 F2000
G1 X179 Y10 Z0.3499999999999999 E720.2999999999954 F2000
G1 X179 Y30 Z0.3499999999999999 E721.2999999999954 F2000
G1 X178 Y30 Z0.3499999999999999 E721.3499999999954 F2000
G1 X178 Y10 Z0.3499999999999999 E722.3499999999954 F2000
G1 X177 Y10 Z0.3499999999999999 E722.3999999999953 F2000
G1 X177 Y30 Z0.3499999999999999 E723.3999999999953 F2000
G1 X176 Y30 Z0.3499999999999999 E723.4499999999953 F2000
G1 X176 Y10 Z0.3499999999999999 E724.4499999999953 F2000
G1 X175 Y10 Z0.3499999999999999 E724.4999999999952 F2000
G1 X175 Y30 Z0.3499999999999999 E725.4999999999952 F2000
G1 X174 Y30 Z0.3499999999999999 E725.5499999999952 F2000
G1 X174 Y10 Z0.3499999999999999 E726.5499999999952 F2000
G1 X173 Y10 Z0.3499999999999999 E726.5999999999951 F2000
G1 X173 Y30 Z0.3499999999999999 E727.5999999999951 F2000
G1 X172 Y30 Z0.3499999999999999 E727.6499999999951 F2000
G1 X172 Y10 Z0.3499999999999999 E728.6499999999951 F2000
G1 X171 Y10 Z0.3499999999999999 E728.699999999995 F2000
G1 X171 Y30 Z0.3499999999999999 E729.699999999995 F2000
G1 X170 Y30 Z0.3499999999999999 E729.749999999995 F2000
G1 X170 Y10 Z0.3499999999999999 E730.749999999995 F2000
G1 X169 Y10 Z0.3499999999999999 E730.799999999995 F2000
G1 X169 Y30 Z0.3499999999999999 E731.799999999995 F2000
G1 X168 Y30 Z0.3499999999999999 E731.8499999999949 F2000
G1 X168 Y10 Z0.3499999999999999 E732.8499999999949 F2000
G1 X167 Y10 Z0.3499999999999999 E732.8999999999949 F2000
G1 X167 Y30 Z0.3499999999999999 E733.8999999999949 F2000
G1 X166 Y30 Z0.3499999999999999 E733.9499999999948 F2000
G1 X166 Y10 Z0.3499999999999999 E734.9499999999948 F2000
G1 X165 Y10 Z0.3499999999999999 E734.9999999999948 F2000
G1 X165 Y30 Z0.3499999999999999 E735.9999999999948 F2000
G1 X165 Y30 Z0.3999999999999999 E735.9999999999948 F2000
G1 X166 Y10 Z0.3999999999999999 E735.9999999999948 F2000
G1 X166 Y30 Z0.3999999999999999 E736.9999999999948 F2000
G1 X167 Y30 Z0.3999999999999999 E737.0499999999947 F2000
G1 X167 Y10 Z0.3999999999999999 E738.0499999999947 F2000
G1 X168 Y10 Z0.3999999999999999 E738.0999999999947 F2000
G1 X168 Y30 Z0.3999999999999999 E739.0999999999947 F2000
G1 X169 Y30 Z0.3999999999999999 E739.1499999999946 F2000
G1 X169 Y10 Z0.3999999999999999 E740.1499999999946 F2000
G1 X170 Y10 Z0.3999999999999999 E740.1999999999946 F2000
G1 X170 Y30 Z0.3999999999999999 E741.1999999999946 F2000
G1 X171 Y30 Z0.3999999999999999 E741.2499999999945 F2000
G1 X171 Y10 Z0.3999999999999999 E742.2499999999945 F2000
G1 X172 Y10 Z0.3999999999999999 E742.2999999999945 F2000
G1 X172 Y30 Z0.3999999999999999 E743.2999999999945 F2000
G1 X173 Y30 Z0.3999999999999999 E743.3499999999945 F2000
G1 X173 Y10 Z0.3999999999999999 E744.3499999999945 F2000
G1 X174 Y10 Z0.3999999999999999 E744.3999999999944 F2000
G1 X174 Y30 Z0.3999999999999999 E745.3999999999944 F2000
G1 X175 Y30 Z0.3999999999999999 E745.4499999999944 F2000
G1 X175 Y10 Z0.3999999999999999 E746.4499999999944 F2000
G1 X176 Y10 Z0.3999999999999999 E746.4999999999943 F2000
G1 X176 Y30 Z0.3999999999999999 E747.4999999999943 F2000
G1 X177 Y30 Z0.3999999999999999 E747.5499999999943 F2000
G1 X177 Y10 Z0.3999999999999999 E748.5499999999943 F2000
G1 X178 Y10 Z0.3999999999999999 E748.5999999999942 F2000
G1 X178 Y30 Z0.3999999999999999 E749.5999999999942 F2000
G1 X179 Y30 Z0.3999999999999999 E749.6499999999942 F2000
G1 X179 Y10 Z0.3999999999999999 E750.6499999999942 F2000
G1 X180 Y10 Z0.3999999999999999 E750.6999999999941 F2000
G1 X180 Y30 Z0.3999999999999999 E751.6999999999941 F2000
G1 X181 Y30 Z0.3999999999999999 E751.7499999999941 F2000
G1 X181 Y10 Z0.3999999999999999 E752.7499999999941 F2000
G1 X181 Y10 Z0.4499999999999999 E752.7499999999941 F2000
G1 X181 Y30 Z0.4499999999999999 E753.7499999999941 F2000
G1 X180 Y30 Z0.4499999999999999 E753.799999999994 F2000
G1 X180 Y10 Z0.4499999999999999 E754.799999999994 F2000
G1 X179 Y10 Z0.4499999999999999 E754.849999999994 F2000
G1 X179 Y30 Z0.4499999999999999 E755.849999999994 F2000
G1 X178 Y30 Z0.4499999999999999 E755.899999999994 F2000
G1 X178 Y10 Z0.4499999999999999 E756.899999999994 F2000
G1 X177 Y10 Z0.4499999999999999 E756.9499999999939 F2000
G1 X177 Y30 Z0.4499999999999999 E757.9499999999939 F2000
G1 X176 Y30 Z0.4499999999999999 E757.9999999999939 F2000
G1 X176 Y10 Z0.4499999999999999 E758.9999999999939 F2000
G1 X175 Y10 Z0.4499999999999999 E759.0499999999938 F2000
G1 X175 Y30 Z0.4499999999999999 E760.0499999999938 F2000
G1 X174 Y30 Z0.4499999999999999 E760.0999999999938 F2000
G1 X174 Y10 Z0.4499999999999999 E761.0999999999938 F2000
G1 X173 Y10 Z0.4499999999999999 E761.1499999999937 F2000
G1 X173 Y30 Z0.4499999999999999 E762.1499999999937 F2000
G1 X172 Y30 Z0.4499999999999999 E762.1999999999937 F2000
G1 X172 Y10 Z0.4499999999999999 E763.1999999999937 F2000
G1 X171 Y10 Z0.4499999999999999 E763.2499999999936 F2000
G1 X171 Y30 Z0.4499999999999999 E764.2499999999936 F2000
G1 X170 Y30 Z0.4499999999999999 E764.2999999999936 F2000
G1 X170 Y10 Z0.4499999999999999 E765.2999999999936 F2000
G1 X169 Y10 Z0.4499999999999999 E765.3499999999935 F2000
G1 X169 Y30 Z0.4499999999999999 E766.3499999999935 F2000
G1 X168 Y30 Z0.4499999999999999 E766.3999999999935 F2000
G1 X168 Y10 Z0.4499999999999999 E767.3999999999935 F2000
G1 X167 Y10 Z0.4499999999999999 E767.4499999999935 F2000
G1 X167 Y30 Z0.4499999999999999 E768.4499999999935 F2000
G1 X167 Y30 Z0.4999999999999999 E768.4499999999935 F2000
G1 X168 Y10 Z0.4999999999999999 E768.4499999999935 F2000
G1 X168 Y30 Z0.4999999999999999 E769.4499999999935 F2000
G1 X169 Y30 Z0.4999999999999999 E769.4999999999934 F2000
G1 X169 Y10 Z0.4999999999999999 E770.4999999999934 F2000
G1 X170 Y10 Z0.4999999999999999 E770.5499999999934 F2000
G1 X170 Y30 Z0.4999999999999999 E771.5499999999934 F2000
G1 X171 Y30 Z0.4999999999999999 E771.5999999999933 F2000
G1 X171 Y10 Z0.4999999999999999 E772.5999999999933 F2000
G1 X172 Y10 Z0.4999999999999999 E772.6499999999933 F2000
G1 X172 Y30 Z0.4999999999999999 E773.6499999999933 F2000
G1 X173 Y30 Z0.4999999999999999 E773.6999999999932 F2000
G1 X173 Y10 Z0.4999999999999999 E774.6999999999932 F2000
G1 X174 Y10 Z0.4999999999999999 E774.7499999999932 F2000
G1 X174 Y30 Z0.4999999999999999 E775.7499999999932 F2000
G1 X175 Y30 Z0.4999999999999999 E775.7999999999931 F2000
G1 X175 Y10 Z0.4999999999999999 E776.7999999999931 F2000
G1 X176 Y10 Z0.4999999999999999 E776.8499999999931 F2000
G1 X176 Y30 Z0.4999999999999999 E777.8499999999931 F2000
G1 X177 Y30 Z0.4999999999999999 E777.899999999993 F2000
G1 X177 Y10 Z0.4999999999999999 E778.899999999993 F2000
G1 X178 Y10 Z0.4999999999999999 E778.949999999993 F2000
G1 X178 Y30 Z0.4999999999999999 E779.949999999993 F2000
G1 X179 Y30 Z0.4999999999999999 E779.999999999993 F2000
G1 X179 Y10 Z0.4999999999999999 E780.999999999993 F2000
G1 X180 Y10 Z0.4999999999999999 E781.0499999999929 F2000
G1 X180 Y30 Z0.4999999999999999 E782.0499999999929 F2000
G1 X181 Y30 Z0.4999999999999999 E782.0999999999929 F2000
G1 X181 Y10 Z0.4999999999999999 E783.0999999999929 F2000
G1 X181 Y10 Z0.5499999999999999 E783.0999999999929 F2000
G1 X181 Y30 Z0.5499999999999999 E784.0999999999929 F2000
G1 X180 Y30 Z0.5499999999999999 E784.1499999999928 F2000
G1 X180 Y10 Z0.5499999999999999 E785.1499999999928 F2000
G1 X179 Y10 Z0.5499999999999999 E785.1999999999928 F2000
G1 X179 Y30 Z0.5499999999999999 E786.1999999999928 F2000
G1 X178 Y30 Z0.5499999999999999 E786.2499999999927 F2000
G1 X178 Y10 Z0.5499999999999999 E787.2499999999927 F2000
G1 X177 Y10 Z0.5499999999999999 E787.2999999999927 F2000
G1 X177 Y30 Z0.5499999999999999 E788.2999999999927 F2000
G1 X176 Y30 Z0.5499999999999999 E788.3499999999926 F2000
G1 X176 Y10 Z0.5499999999999999 E789.3499999999926 F2000
G1 X175 Y10 Z0.5499999999999999 E789.3999999999926 F2000
G1 X175 Y30 Z0.5499999999999999 E790.3999999999926 F2000
G1 X174 Y30 Z0.5499999999999999 E790.4499999999925 F2000
G1 X174 Y10 Z0.5499999999999999 E791.4499999999925 F2000
G1 X173 Y10 Z0.5499999999999999 E791.4999999999925 F2000
G1 X173 Y30 Z0.5499999999999999 E792.4999999999925 F2000
G1 X172 Y30 Z0.5499999999999999 E792.5499999999925 F2000
G1 X172 Y10 Z0.5499999999999999 E793.5499999999925 F2000
G1 X171 Y10 Z0.5499999999999999 E793.5999999999924 F2000
G1 X171 Y30 Z0.5499999999999999 E794.5999999999924 F2000
G1 X170 Y30 Z0.5499999999999999 E794.6499999999924 F2000
G1 X170 Y10 Z0.5499999999999999 E795.6499999999924 F2000
G1 X169 Y10 Z0.5499999999999999 E795.6999999999923 F2000
G1 X169 Y30 Z0.5499999999999999 E796.6999999999923 F2000
G1 X169 Y30 Z0.6 E796.6999999999923 F2000
G1 X170 Y10 Z0.6 E796.6999999999923 F2000
G1 X170 Y30 Z0.6 E797.6999999999923 F2000
G1 X171 Y30 Z0.6 E797.7499999999923 F2000
G1 X171 Y10 Z0.6 E798.7499999999923 F2000
G1 X172 Y10 Z0.6 E798.7999999999922 F2000
G1 X172 Y30 Z0.6 E799.7999999999922 F2000
G1 X173 Y30 Z0.6 E799.8499999999922 F2000
G1 X173 Y10 Z0.6 E800.8499999999922 F2000
G1 X174 Y10 Z0.6 E800.8999999999921 F2000
G1 X174 Y30 Z0.6 E801.8999999999921 F2000
G1 X175 Y30 Z0.6 E801.9499999999921 F2000
G1 X175 Y10 Z0.6 E802.9499999999921 F2000
G1 X176 Y10 Z0.6 E802.999999999992 F2000
G1 X176 Y30 Z0.6 E803.999999999992 F2000
G1 X177 Y30 Z0.6 E804.049999999992 F2000
G1 X177 Y10 Z0.6 E805.049999999992 F2000
G1 X178 Y10 Z0.6 E805.099999999992 F2000
G1 X178 Y30 Z0.6 E806.099999999992 F2000
G1 X179 Y30 Z0.6 E806.1499999999919 F2000
G1 X179 Y10 Z0.6 E807.1499999999919 F2000
G1 X180 Y10 Z0.6 E807.1999999999919 F2000
G1 X180 Y30 Z0.6 E808.1999999999919 F2000
G1 X181 Y30 Z0.6 E808.2499999999918 F2000
G1 X181 Y10 Z0.6 E809.2499999999918 F2000
G1 X181 Y10 Z0.65 E809.2499999999918 F2000
G1 X181 Y30 Z0.65 E810.2499999999918 F2000
G1 X180 Y30 Z0.65 E810.2999999999918 F2000
G1 X180 Y10 Z0.65 E811.2999999999918 F2000
G1 X179 Y10 Z0.65 E811.3499999999917 F2000
G1 X179 Y30 Z0.65 E812.3499999999917 F2000
G1 X178 Y30 Z0.65 E812.3999999999917 F2000
G1 X178 Y10 Z0.65 E813.3999999999917 F2000
G1 X177 Y10 Z0.65 E813.4499999999916 F2000
G1 X177 Y30 Z0.65 E814.4499999999916 F2000
G1 X176 Y30 Z0.65 E814.4999999999916 F2000
G1 X176 Y10 Z0.65 E815.4999999999916 F2000
G1 X175 Y10 Z0.65 E815.5499999999915 F2000
G1 X175 Y30 Z0.65 E816.5499999999915 F2000
G1 X174 Y30 Z0.65 E816.5999999999915 F2000
G1 X174 Y10 Z0.65 E817.5999999999915 F2000
G1 X173 Y10 Z0.65 E817.6499999999915 F2000
G1 X173 Y30 Z0.65 E818.6499999999915 F2000
G1 X172 Y30 Z0.65 E818.6999999999914 F2000
G1 X172 Y10 Z0.65 E819.6999999999914 F2000
G1 X171 Y10 Z0.65 E819.7499999999914 F2000
G1 X171 Y30 Z0.65 E820.7499999999914 F2000
G1 X171 Y30 Z0.7000000000000001 E820.7499999999914 F2000
G1 X172 Y10 Z0.7000000000000001 E820.7499999999914 F2000
G1 X172 Y30 Z0.7000000000000001 E821.7499999999914 F2000
G1 X173 Y30 Z0.7000000000000001 E821.7999999999913 F2000
G1 X173 Y10 Z0.7000000000000001 E822.7999999999913 F2000
G1 X174 Y10 Z0.7000000000000001 E822.8499999999913 F2000
G1 X174 Y30 Z0.7000000000000001 E823.8499999999913 F2000
G1 X175 Y30 Z0.7000000000000001 E823.8999999999912 F2000
G1 X175 Y10 Z0.7000000000000001 E824.8999999999912 F2000
G1 X176 Y10 Z0.7000000000000001 E824.9499999999912 F2000
G1 X176 Y30 Z0.7000000000000001 E825.9499999999912 F2000
G1 X177 Y30 Z0.7000000000000001 E825.9999999999911 F2000
G1 X177 Y10 Z0.7000000000000001 E826.9999999999911 F2000
G1 X178 Y10 Z0.7000000000000001 E827.0499999999911 F2000
G1 X178 Y30 Z0.7000000000000001 E828.0499999999911 F2000
G1 X179 Y30 Z0.7000000000000001 E828.099999999991 F2000
G1 X179 Y10 Z0.7000000000000001 E829.099999999991 F2000
G1 X180 Y10 Z0.7000000000000001 E829.149999999991 F2000
G1 X180 Y30 Z0.7000000000000001 E830.149999999991 F2000
G1 X181 Y30 Z0.7000000000000001 E830.199999999991 F2000
G1 X181 Y10 Z0.7000000000000001 E831.199999999991 F2000
G1 X181 Y10 Z0.7500000000000001 E831.199999999991 F2000
G1 X181 Y30 Z0.7500000000000001 E832.199999999991 F2000
G1 X180 Y30 Z0.7500000000000001 E832.2499999999909 F2000
G1 X180 Y10 Z0.7500000000000001 E833.2499999999909 F2000
G1 X179 Y10 Z0.7500000000000001 E833.2999999999909 F2000
G1 X179 Y30 Z0.7500000000000001 E834.2999999999909 F2000
G1 X178 Y30 Z0.7500000000000001 E834.3499999999908 F2000
G1 X178 Y10 Z0.7500000000000001 E835.3499999999908 F2000
G1 X177 Y10 Z0.7500000000000001 E835.3999999999908 F2000
G1 X177 Y30 Z0.7500000000000001 E836.3999999999908 F2000
G1 X176 Y30 Z0.7500000000000001 E836.4499999999907 F2000
G1 X176 Y10 Z0.7500000000000001 E837.4499999999907 F2000
G1 X175 Y10 Z0.7500000000000001 E837.4999999999907 F2000
G1 X175 Y30 Z0.7500000000000001 E838.4999999999907 F2000
G1 X174 Y30 Z0.7500000000000001 E838.5499999999906 F2000
G1 X174 Y10 Z0.7500000000000001 E839.5499999999906 F2000
G1 X173 Y10 Z0.7500000000000001 E839.5999999999906 F2000
G1 X173 Y30 Z0.7500000000000001 E840.5999999999906 F2000
G1 X173 Y30 Z0.8000000000000002 E840.5999999999906 F2000
G1 X174 Y10 Z0.8000000000000002 E840.5999999999906 F2000
G1 X174 Y30 Z0.8000000000000002 E841.5999999999906 F2000
G1 X175 Y30 Z0.8000000000000002 E841.6499999999905 F2000
G1 X175 Y10 Z0.8000000000000002 E842.6499999999905 F2000
G1 X176 Y10 Z0.8000000000000002 E842.6999999999905 F2000
G1 X176 Y30 Z0.8000000000000002 E843.6999999999905 F2000
G1 X177 Y30 Z0.8000000000000002 E843.7499999999905 F2000
G1 X177 Y10 Z0.8000000000000002 E844.7499999999905 F2000
G1 X178 Y10 Z0.8000000000000002 E844.7999999999904 F2000
G1 X178 Y30 Z0.8000000000000002 E845.7999999999904 F2000
G1 X179 Y30 Z0.8000000000000002 E845.8499999999904 F2000
G1 X179 Y10 Z0.8000000000000002 E846.8499999999904 F2000
G1 X180 Y10 Z0.8000000000000002 E846.8999999999903 F2000
G1 X180 Y30 Z0.8000000000000002 E847.8999999999903 F2000
G1 X181 Y30 Z0.8000000000000002 E847.9499999999903 F2000
G1 X181 Y10 Z0.8000000000000002 E848.9499999999903 F2000
G1 X181 Y10 Z0.8500000000000002 E848.9499999999903 F2000
G1 X181 Y30 Z0.8500000000000002 E849.9499999999903 F2000
G1 X180 Y30 Z0.8500000000000002 E849.9999999999902 F2000
G1 X180 Y10 Z0.8500000000000002 E850.9999999999902 F2000
G1 X179 Y10 Z0.8500000000000002 E851.0499999999902 F2000
G1 X179 Y30 Z0.8500000000000002 E852.0499999999902 F2000
G1 X178 Y30 Z0.8500000000000002 E852.0999999999901 F2000
G1 X178 Y10 Z0.8500000000000002 E853.0999999999901 F2000
G1 X177 Y10 Z0.8500000000000002 E853.1499999999901 F2000
G1 X177 Y30 Z0.8500000000000002 E854.1499999999901 F2000
G1 X176 Y30 Z0.8500000000000002 E854.19999999999 F2000
G1 X176 Y10 Z0.8500000000000002 E855.19999999999 F2000
G1 X175 Y10 Z0.8500000000000002 E855.24999999999 F2000
G1 X175 Y30 Z0.8500000000000002 E856.24999999999 F2000
G1 X175 Y30 Z0.9000000000000002 E856.24999999999 F2000
G1 X176 Y10 Z0.9000000000000002 E856.24999999999 F2000
G1 X176 Y30 Z0.9000000000000002 E857.24999999999 F2000
G1 X177 Y30 Z0.9000000000000002 E857.29999999999 F2000
G1 X177 Y10 Z0.9000000000000002 E858.29999999999 F2000
G1 X178 Y10 Z0.9000000000000002 E858.3499999999899 F2000
G1 X178 Y30 Z0.9000000000000002 E859.3499999999899 F2000
G1 X179 Y30 Z0.9000000000000002 E859.3999999999899 F2000
G1 X179 Y10 Z0.9000000000000002 E860.3999999999899 F2000
G1 X180 Y10 Z0.9000000000000002 E860.4499999999898 F2000
G1 X180 Y30 Z0.9000000000000002 E861.4499999999898 F2000
G1 X181 Y30 Z0.9000000000000002 E861.4999999999898 F2000
G1 X181 Y10 Z0.9000000000000002 E862.4999999999898 F2000
G1 X181 Y10 Z0.9500000000000003 E862.4999999999898 F2000
G1 X181 Y30 Z0.9500000000000003 E863.4999999999898 F2000
G1 X180 Y30 Z0.9500000000000003 E863.5499999999897 F2000
G1 X180 Y10 Z0.9500000000000003 E864.5499999999897 F2000
G1 X179 Y10 Z0.9500000000000003 E864.5999999999897 F2000
G1 X179 Y30 Z0.9500000000000003 E865.5999999999897 F2000
G1 X178 Y30 Z0.9500000000000003 E865.6499999999896 F2000
G1 X178 Y10 Z0.9500000000000003 E866.6499999999896 F2000
G1 X177 Y10 Z0.9500000000000003 E866.6999999999896 F2000
G1 X177 Y30 Z0.9500000000000003 E867.6999999999896 F2000
G1 X177 Y30 Z1.0000000000000002 E867.6999999999896 F2000
G1 X178 Y10 Z1.0000000000000002 E867.6999999999896 F2000
G1 X178 Y30 Z1.0000000000000002 E868.6999999999896 F2000
G1 X179 Y30 Z1.0000000000000002 E868.7499999999895 F2000
G1 X179 Y10 Z1.0000000000000002 E869.7499999999895 F2000
G1 X180 Y10 Z1.0000000000000002 E869.7999999999895 F2000
G1 X180 Y30 Z1.0000000000000002 E870.7999999999895 F2000
G1 X181 Y30 Z1.0000000000000002 E870.8499999999894 F2000
G1 X181 Y10 Z1.0000000000000002 E871.8499999999894 F2000
G1 X181 Y10 Z1.0500000000000003 E871.8499999999894 F2000
G1 X181 Y30 Z1.0500000000000003 E872.8499999999894 F2000
G1 X180 Y30 Z1.0500000000000003 E872.8999999999894 F2000
G1 X180 Y10 Z1.0500000000000003 E873.8999999999894 F2000
G1 X179 Y10 Z1.0500000000000003 E873.9499999999894 F2000
G1 X179 Y30 Z1.0500000000000003 E874.9499999999894 F2000
G1 X179 Y30 Z1.1000000000000003 E874.9499999999894 F2000
G1 X180 Y10 Z1.1000000000000003 E874.9499999999894 F2000
G1 X180 Y30 Z1.1000000000000003 E875.9499999999894 F2000
G1 X181 Y30 Z1.1000000000000003 E875.9999999999893 F2000
G1 X181 Y10 Z1.1000000000000003 E876.9999999999893 F2000
G1 X181 Y10 Z1.1500000000000004 E876.9999999999893 F2000
G1 X181 Y30 Z1.1500000000000004 E877.9999999999893 F2000
G1 X181 Y30 Z1.2000000000000004 E877.9999999999893 F2000
G1 X211 Y10 Z0.19999999999999996 E877.9999999999893 F2000
G1 X211 Y30 Z0.19999999999999996 E878.9999999999893 F2000
G1 X212 Y30 Z0.19999999999999996 E879.0499999999893 F2000
G1 X212 Y10 Z0.19999999999999996 E880.0499999999893 F2000
G1 X213 Y10 Z0.19999999999999996 E880.0999999999892 F2000
G1 X213 Y30 Z0.19999999999999996 E881.0999999999892 F2000
G1 X214 Y30 Z0.19999999999999996 E881.1499999999892 F2000
G1 X214 Y10 Z0.19999999999999996 E882.1499999999892 F2000
G1 X215 Y10 Z0.19999999999999996 E882.1999999999891 F2000
G1 X215 Y30 Z0.19999999999999996 E883.1999999999891 F2000
G1 X216 Y30 Z0.19999999999999996 E883.2499999999891 F2000
G1 X216 Y10 Z0.19999999999999996 E884.2499999999891 F2000
G1 X217 Y10 Z0.19999999999999996 E884.299999999989 F2000
G1 X217 Y30 Z0.19999999999999996 E885.299999999989 F2000
G1 X218 Y30 Z0.19999999999999996 E885.349999999989 F2000
G1 X218 Y10 Z0.19999999999999996 E886.349999999989 F2000
G1 X219 Y10 Z0.19999999999999996 E886.399999999989 F2000
G1 X219 Y30 Z0.19999999999999996 E887.399999999989 F2000
G1 X220 Y30 Z0.19999999999999996 E887.4499999999889 F2000
G1 X220 Y10 Z0.19999999999999996 E888.4499999999889 F2000
G1 X221 Y10 Z0.19999999999999996 E888.4999999999889 F2000
G1 X221 Y30 Z0.19999999999999996 E889.4999999999889 F2000
G1 X222 Y30 Z0.19999999999999996 E889.5499999999888 F2000
G1 X222 Y10 Z0.19999999999999996 E890.5499999999888 F2000
G1 X223 Y10 Z0.19999999999999996 E890.5999999999888 F2000
G1 X223 Y30 Z0.19999999999999996 E891.5999999999888 F2000
G1 X224 Y30 Z0.19999999999999996 E891.6499999999887 F2000
G1 X224 Y10 Z0.19999999999999996 E892.6499999999887 F2000
G1 X225 Y10 Z0.19999999999999996 E892.6999999999887 F2000
G1 X225 Y30 Z0.19999999999999996 E893.6999999999887 F2000
G1 X226 Y30 Z0.19999999999999996 E893.7499999999886 F2000
G1 X226 Y10 Z0.19999999999999996 E894.7499999999886 F2000
G1 X227 Y10 Z0.19999999999999996 E894.7999999999886 F2000
G1 X227 Y30 Z0.19999999999999996 E895.7999999999886 F2000
G1 X228 Y30 Z0.19999999999999996 E895.8499999999885 F2000
G1 X228 Y10 Z0.19999999999999996 E896.8499999999885 F2000
G1 X229 Y10 Z0.19999999999999996 E896.8999999999885 F2000
G1 X229 Y30 Z0.19999999999999996 E897.8999999999885 F2000
G1 X230 Y30 Z0.19999999999999996 E897.9499999999884 F2000
G1 X230 Y10 Z0.19999999999999996 E898.9499999999884 F2000
G1 X230 Y10 Z0.24999999999999994 E898.9499999999884 F2000
G1 X230 Y30 Z0.24999999999999994 E899.9499999999884 F2000
G1 X229 Y30 Z0.24999999999999994 E899.9999999999884 F2000
G1 X229 Y10 Z0.24999999999999994 E900.9999999999884 F2000
G1 X228 Y10 Z0.24999999999999994 E901.0499999999884 F2000
G1 X228 Y30 Z0.24999999999999994 E902.0499999999884 F2000
G1 X227 Y30 Z0.24999999999999994 E902.0999999999883 F2000
G1 X227 Y10 Z0.24999999999999994 E903.0999999999883 F2000
G1 X226 Y10 Z0.24999999999999994 E903.1499999999883 F2000
G1 X226 Y30 Z0.24999999999999994 E904.1499999999883 F2000
G1 X225 Y30 Z0.24999999999999994 E904.1999999999882 F2000
G1 X225 Y10 Z0.24999999999999994 E905.1999999999882 F2000
G1 X224 Y10 Z0.24999999999999994 E905.2499999999882 F2000
G1 X224 Y30 Z0.24999999999999994 E906.2499999999882 F2000
G1 X223 Y30 Z0.24999999999999994 E906.2999999999881 F2000
G1 X223 Y10 Z0.24999999999999994 E907.2999999999881 F2000
G1 X222 Y10 Z0.24999999999999994 E907.3499999999881 F2000
G1 X222 Y30 Z0.24999999999999994 E908.3499999999881 F2000
G1 X221 Y30 Z0.24999999999999994 E908.399999999988 F2000
G1 X221 Y10 Z0.24999999999999994 E909.399999999988 F2000
G1 X220 Y10 Z0.24999999999999994 E909.449999999988 F2000
G1 X220 Y30 Z0.24999999999999994 E910.449999999988 F2000
G1 X219 Y30 Z0.24999999999999994 E910.499999999988 F2000
G1 X219 Y10 Z0.24999999999999994 E911.499999999988 F2000
G1 X218 Y10 Z0.24999999999999994 E911.5499999999879 F2000
G1 X218 Y30 Z0.24999999999999994 E912.5499999999879 F2000
G1 X217 Y30 Z0.24999999999999994 E912.5999999999879 F2000
G1 X217 Y10 Z0.24999999999999994 E913.5999999999879 F2000
G1 X216 Y10 Z0.24999999999999994 E913.6499999999878 F2000
G1 X216 Y30 Z0.24999999999999994 E914.6499999999878 F2000
G1 X215 Y30 Z0.24999999999999994 E914.6999999999878 F2000
G1 X215 Y10 Z0.24999999999999994 E915.6999999999878 F2000
G1 X214 Y10 Z0.24999999999999994 E915.7499999999877 F2000
G1 X214 Y30 Z0.24999999999999994 E916.7499999999877 F2000
G1 X213 Y30 Z0.24999999999999994 E916.7999999999877 F2000
G1 X213 Y10 Z0.24999999999999994 E917.7999999999877 F2000
G1 X212 Y10 Z0.24999999999999994 E917.8499999999876 F2000
G1 X212 Y30 Z0.24999999999999994 E918.8499999999876 F2000
G1 X212 Y30 Z0.29999999999999993 E918.8499999999876 F2000
G1 X213 Y10 Z0.29999999999999993 E918.8499999999876 F2000
G1 X213 Y30 Z0.29999999999999993 E919.8499999999876 F2000
G1 X214 Y30 Z0.29999999999999993 E919.8999999999876 F2000
G1 X214 Y10 Z0.29999999999999993 E920.8999999999876 F2000
G1 X215 Y10 Z0.29999999999999993 E920.9499999999875 F2000
G1 X215 Y30 Z0.29999999999999993 E921.9499999999875 F2000
G1 X216 Y30 Z0.29999999999999993 E921.9999999999875 F2000
G1 X216 Y10 Z0.29999999999999993 E922.9999999999875 F2000
G1 X217 Y10 Z0.29999999999999993 E923.0499999999874 F2000
G1 X217 Y30 Z0.29999999999999993 E924.0499999999874 F2000
G1 X218 Y30 Z0.29999999999999993 E924.0999999999874 F2000
G1 X218 Y10 Z0.29999999999999993 E925.0999999999874 F2000
G1 X219 Y10 Z0.29999999999999993 E925.1499999999874 F2000
G1 X219 Y30 Z0.29999999999999993 E926.1499999999874 F2000
G1 X220 Y30 Z0.29999999999999993 E926.1999999999873 F2000
G1 X220 Y10 Z0.29999999999999993 E927.1999999999873 F2000
G1 X221 Y10 Z0.29999999999999993 E927.2499999999873 F2000
G1 X221 Y30 Z0.29999999999999993 E928.2499999999873 F2000
G1 X222 Y30 Z0.29999999999999993 E928.2999999999872 F2000
G1 X222 Y10 Z0.29999999999999993 E929.2999999999872 F2000
G1 X223 Y10 Z0.29999999999999993 E929.3499999999872 F2000
G1 X223 Y30 Z0.29999999999999993 E930.3499999999872 F2000
G1 X224 Y30 Z0.29999999999999993 E930.3999999999871 F2000
G1 X224 Y10 Z0.29999999999999993 E931.3999999999871 F2000
G1 X225 Y10 Z0.29999999999999993 E931.4499999999871 F2000
G1 X225 Y30 Z0.29999999999999993 E932.4499999999871 F2000
G1 X226 Y30 Z0.29999999999999993 E932.499999999987 F2000
G1 X226 Y10 Z0.29999999999999993 E933.499999999987 F2000
G1 X227 Y10 Z0.29999999999999993 E933.549999999987 F2000
G1 X227 Y30 Z0.29999999999999993 E934.549999999987 F2000
G1 X228 Y30 Z0.29999999999999993 E934.599999999987 F2000
G1 X228 Y10 Z0.29999999999999993 E935.599999999987 F2000
G1 X229 Y10 Z0.29999999999999993 E935.6499999999869 F2000
G1 X229 Y30 Z0.29999999999999993 E936.6499999999869 F2000
